;FLAVOR:Marlin
;TIME:1799
;Filament used: 1.99203m
;Layer height: 0.3
;MINX:-29.8
;MINY:-15.302
;MINZ:0.3
;MAXX:29.794
;MAXY:15.302
;MAXZ:48
;Generated with Cura_SteamEngine master
M140 S60
M105
M190 S60
M104 S200
M105
M109 S200
M82 ;absolute extrusion mode
G28 ;Home
G1 Z15.0 F6000 ;Move the platform down 15mm
;Prime the extruder
G92 E0
G1 F200 E3
G92 E0
G92 E0
G92 E0
G1 F1500 E-6.5
;LAYER_COUNT:160
;LAYER:0
M107 P1
;MESH:3DBenchy.stl
G0 F3600 X-7.672 Y0.976 Z0.3
;TYPE:WALL-OUTER
G1 F1500 E0
G1 F1800 X-7.675 Y-1.545 E0.12577
G1 X-7.633 Y-1.727 E0.13509
G1 X-7.107 Y-1.751 E0.16136
G1 X-6.595 Y-1.714 E0.18697
G1 X-6.178 Y-1.607 E0.20845
G1 X-5.987 Y-1.469 E0.22021
G1 X-5.803 Y-1.204 E0.2363
G1 X-5.651 Y-.768 E0.25934
G1 X-5.586 Y-.255 E0.28514
G1 X-5.591 Y0.225 E0.30908
G1 X-5.663 Y0.704 E0.33325
G1 X-5.821 Y1.125 E0.35568
G1 X-6.039 Y1.407 E0.37347
G1 X-6.296 Y1.567 E0.38857
G1 X-6.761 Y1.663 E0.41226
G1 X-7.484 Y1.677 E0.44834
G1 X-7.592 Y1.679 E0.45373
G1 X-7.645 Y1.637 E0.4571
G1 X-7.685 Y1.509 E0.46379
G1 X-7.683 Y1.401 E0.46918
G1 X-7.672 Y0.976 E0.49039
G0 F3600 X-7.672 Y0.776
G0 X-7.282 Y0.98
;TYPE:SKIN
G1 F1800 X-7.285 Y-1.352 E0.60673
G1 X-6.659 Y-1.328 E0.63799
G1 X-6.345 Y-1.247 E0.65417
G1 X-6.155 Y-1.027 E0.66867
G1 X-6.031 Y-.674 E0.68733
G1 X-5.976 Y-.24 E0.70916
G1 X-5.981 Y0.191 E0.73066
G1 X-6.043 Y0.608 E0.7517
G1 X-6.165 Y0.933 E0.76902
G1 X-6.305 Y1.113 E0.78039
G1 X-6.443 Y1.199 E0.78851
G1 X-6.803 Y1.273 E0.80684
G1 X-7.289 Y1.283 E0.83109
G1 X-7.282 Y0.98 E0.84621
G0 F3600 X-6.826 Y1.093
G1 F1800 X-7.102 Y0.817 E0.86569
G0 F3600 X-7.102 Y0.251
G1 F1800 X-6.404 Y0.949 E0.91493
G0 F3600 X-6.219 Y0.569
G1 F1800 X-7.103 Y-.315 E0.97731
G0 F3600 X-7.104 Y-.881
G1 F1800 X-6.158 Y0.063 E1.04398
G0 F3600 X-6.192 Y-.535
G1 F1800 X-6.81 Y-1.153 E1.08758