;FLAVOR:Marlin
;TIME:1799
;Filament used: 1.99203m
;Layer height: 0.3
;MINX:-29.8
;MINY:-15.302
;MINZ:0.3
;MAXX:29.794
;MAXY:15.302
;MAXZ:48
;Generated with Cura_SteamEngine master
M140 S60
M105
M190 S60
M104 S200
M105
M109 S200
M82 ;absolute extrusion mode
G28 ;Home
G1 Z15.0 F6000 ;Move the platform down 15mm
;Prime the extruder
G92 E0
G1 F200 E3
G92 E0
G92 E0
G92 E0
G1 F1500 E-6.5
;LAYER_COUNT:160
;LAYER:0
M107 P1
;MESH:3DBenchy.stl
G0 F3600 X-7.672 Y0.976 Z0.3
;TYPE:WALL-OUTER
G1 F1500 E0
G1 F1800 X-7.675 Y-1.545 E0.12577
G1 X-7.633 Y-1.727 E0.13509
G1 X-7.107 Y-1.751 E0.16136
G1 X-6.595 Y-1.714 E0.18697
G1 X-6.178 Y-1.607 E0.20845
G1 X-5.987 Y-1.469 E0.22021
G1 X-5.803 Y-1.204 E0.2363
G1 X-5.651 Y-.768 E0.25934
G1 X-5.586 Y-.255 E0.28514
G1 X-5.591 Y0.225 E0.30908
G1 X-5.663 Y0.704 E0.33325
G1 X-5.821 Y1.125 E0.35568
G1 X-6.039 Y1.407 E0.37347
G1 X-6.296 Y1.567 E0.38857
G1 X-6.761 Y1.663 E0.41226
G1 X-7.484 Y1.677 E0.44834
G1 X-7.592 Y1.679 E0.45373
G1 X-7.645 Y1.637 E0.4571
G1 X-7.685 Y1.509 E0.46379
G1 X-7.683 Y1.401 E0.46918
G1 X-7.672 Y0.976 E0.49039
G0 F3600 X-7.672 Y0.776
G0 X-7.282 Y0.98
;TYPE:SKIN
G1 F1800 X-7.285 Y-1.352 E0.60673
G1 X-6.659 Y-1.328 E0.63799
G1 X-6.345 Y-1.247 E0.65417
G1 X-6.155 Y-1.027 E0.66867
G1 X-6.031 Y-.674 E0.68733
G1 X-5.976 Y-.24 E0.70916
G1 X-5.981 Y0.191 E0.73066
G1 X-6.043 Y0.608 E0.7517
G1 X-6.165 Y0.933 E0.76902
G1 X-6.305 Y1.113 E0.78039
G1 X-6.443 Y1.199 E0.78851
G1 X-6.803 Y1.273 E0.80684
G1 X-7.289 Y1.283 E0.83109
G1 X-7.282 Y0.98 E0.84621
G0 F3600 X-6.826 Y1.093
G1 F1800 X-7.102 Y0.817 E0.86569
G0 F3600 X-7.102 Y0.251
G1 F1800 X-6.404 Y0.949 E0.91493
G0 F3600 X-6.219 Y0.569
G1 F1800 X-7.103 Y-.315 E0.97731
G0 F3600 X-7.104 Y-.881
G1 F1800 X-6.158 Y0.063 E1.04398
G0 F3600 X-6.192 Y-.535
G1 F1800 X-6.81 Y-1.153 E1.08758
G1 X-6.88 Y-1.223
G1 F1500 E-5.41242
G0 F3600 X-7.629 Y1.626
G0 X-7.923 Y3.075
G0 X-8.863 Y3.106
G0 X-8.805 Y3.025
;TYPE:WALL-OUTER
G1 F1500 E1.08758
G1 F1800 X-8.497 Y3.119 E1.10365
G1 X-7.923 Y3.075 E1.13237
G1 X-7.35 Y3.084 E1.16096
G1 X-6.789 Y3.07 E1.18896
G1 X-6.211 Y2.997 E1.21802
G1 X-5.666 Y2.827 E1.24651
G1 X-5.178 Y2.517 E1.27535
G1 X-4.781 Y2.09 E1.30444
G1 X-4.767 Y2.075 E1.30546
G1 X-4.561 Y1.712 E1.32628
G1 X-4.483 Y1.575 E1.33415
G1 X-4.422 Y1.39 E1.34387
G1 X-4.407 Y1.343 E1.34633
G1 X-4.305 Y1.04 E1.36228
G1 X-4.209 Y0.5 E1.38964
G1 X-4.18 Y-.106 E1.41991
G1 X-4.216 Y-.68 E1.4486
G1 X-4.33 Y-1.263 E1.47824
G1 X-4.539 Y-1.811 E1.5075
G1 X-4.832 Y-2.276 E1.53492
G1 X-5.237 Y-2.673 E1.56322
G1 X-5.693 Y-2.928 E1.58928
G1 X-6.214 Y-3.071 E1.61624
G1 X-6.754 Y-3.135 E1.64337
G1 X-7.35 Y-3.153 E1.67311
G1 X-7.855 Y-3.152 E1.69831
G1 X-8.411 Y-3.16 E1.72605
G1 X-8.814 Y-3.048 E1.74692
G1 X-9.054 Y-2.81 E1.76378
G1 X-9.108 Y-2.464 E1.78125
G1 X-9.066 Y-1.957 E1.80663
G1 X-9.077 Y-1.229 E1.84296
G1 X-9.075 Y1.257 E1.96698
G1 X-9.071 Y1.752 E1.99168
G1 X-9.088 Y2.274 E2.01774
G1 X-9.014 Y2.73 E2.04078
G1 X-8.805 Y3.025 E2.05882
G0 F3600 X-8.614 Y3.083
G0 X-8.644 Y3.178
G0 X-12.558 Y3.288
G0 X-13.425 Y3.073
G0 X-13.987 Y2.478
G0 X-13.313 Y0.148
G0 X-13.232 Y0.09
G1 F1800 X-12.949 Y0.284 E2.07594
G1 X-12.425 Y0.385 E2.10256
G1 X-12.079 Y0.521 E2.12111
G1 X-11.808 Y0.748 E2.13875
G1 X-11.634 Y1.027 E2.15515
G1 X-11.574 Y1.323 E2.17022
G1 X-11.63 Y1.577 E2.1832
G1 X-11.776 Y1.785 E2.19587
G1 X-11.995 Y1.925 E2.20884
G1 X-12.232 Y1.962 E2.22081
G1 X-12.403 Y1.902 E2.22985
G1 X-12.828 Y1.596 E2.25598
G1 X-13.208 Y1.483 E2.27576
G1 X-13.621 Y1.545 E2.29659
G1 X-13.887 Y1.755 E2.3135
G1 X-13.999 Y2.07 E2.33018
G1 X-13.95 Y2.465 E2.35004
G1 X-13.752 Y2.793 E2.36915
G1 X-13.407 Y3.038 E2.39026
G1 X-13.109 Y3.151 E2.40616
G1 X-12.555 Y3.249 E2.43423
G1 X-12.012 Y3.248 E2.46132
G1 X-11.455 Y3.142 E2.48961
G1 X-10.969 Y2.903 E2.51663
G1 X-10.572 Y2.541 E2.54343
G1 X-10.273 Y2.059 E2.57173
G1 X-10.112 Y1.531 E2.59927
G1 X-10.099 Y1.027 E2.62442
G1 X-10.229 Y0.468 E2.65306
G1 X-10.441 Y-0.073 E2.68204
G1 X-10.66 Y-.298 E2.69771
G1 X-10.705 Y-.345 E2.70096
G1 X-10.917 Y-.428 E2.71231
G1 X-11.057 Y-.484 E2.71984
G1 X-10.859 Y-.576 E2.72393
G1 X-10.809 Y-.618 E2.72719
G1 X-10.552 Y-.83 E2.74381
G1 X-10.386 Y-1.219 E2.76491
G1 X-10.33 Y-1.82 E2.79503
G1 X-10.394 Y-2.31 E2.81968
G1 X-10.592 Y-2.682 E2.8407
G1 X-10.941 Y-3.011 E2.86463
G1 X-11.402 Y-3.224 E2.88997
G1 X-11.94 Y-3.318 E2.91722
G1 X-12.499 Y-3.32 E2.94511
G1 X-13.066 Y-3.218 E2.97385
G1 X-13.58 Y-2.977 E3.00217
G1 X-13.902 Y-2.672 E3.0243
G1 X-14.005 Y-2.349 E3.04121
G1 X-13.911 Y-1.984 E3.06001
G1 X-13.645 Y-1.678 E3.08024
G1 X-13.318 Y-1.565 E3.0975
G1 X-12.971 Y-1.697 E3.11603
G1 X-12.542 Y-1.963 E3.14121
G1 X-12.277 Y-2.02 E3.15473
G1 X-12.09 Y-1.982 E3.16425
G1 X-11.958 Y-1.87 E3.17289
G1 X-11.879 Y-1.686 E3.18288
G1 X-11.887 Y-1.492 E3.19257
G1 X-11.997 Y-1.296 E3.20378
G1 X-12.192 Y-1.149 E3.21596
G1 X-13.013 Y-.922 E3.25846
G1 X-13.23 Y-.656 E3.27559
G1 X-13.324 Y-.241 E3.29681
G1 X-13.232 Y0.09 E3.31395
G0 F3600 X-13.067 Y0.203
G0 X-13.124 Y0.285
G0 X-16.996 Y3.113
G0 X-17.801 Y3.056
G0 X-17.74 Y2.978
G1 F1800 X-17.385 Y3.108 E3.33282
G1 X-17.009 Y3.076 E3.35164
G1 X-16.727 Y2.874 E3.36895
G1 X-16.573 Y2.495 E3.38936
G1 X-16.561 Y1.946 E3.41675
G1 X-16.573 Y1.419 E3.44305
G1 X-16.569 Y0.805 E3.47369
G1 X-16.57 Y-.602 E3.54388
G1 X-16.563 Y-1.572 E3.59228
G1 X-16.563 Y-1.686 E3.59796
G1 X-16.526 Y-1.772 E3.60264
G1 X-16.436 Y-1.809 E3.60749
G1 X-16.322 Y-1.806 E3.61318
G1 X-15.966 Y-1.796 E3.63095
G1 X-15.437 Y-1.799 E3.65734
G1 X-14.979 Y-1.89 E3.68064
G1 X-14.723 Y-2.126 E3.69801
G1 X-14.639 Y-2.495 E3.71689
G1 X-14.725 Y-2.886 E3.73686
G1 X-14.964 Y-3.103 E3.75297
G1 X-15.359 Y-3.159 E3.77287
G1 X-16.03 Y-3.15 E3.80635
G1 X-16.548 Y-3.154 E3.83219
G1 X-18.115 Y-3.152 E3.91037
G1 X-18.639 Y-3.149 E3.93651
G1 X-19.176 Y-3.188 E3.96338
G1 X-19.501 Y-3.093 E3.98027
G1 X-19.733 Y-2.817 E3.99826
G1 X-19.81 Y-2.44 E4.01745
G1 X-19.697 Y-2.044 E4.038
G1 X-19.45 Y-1.81 E4.05497
G1 X-19.076 Y-1.755 E4.07383
G1 X-18.551 Y-1.824 E4.10025
G1 X-18.185 Y-1.811 E4.11852
G1 X-18.006 Y-1.725 E4.12843
G1 X-17.917 Y-1.606 E4.13584
G1 X-17.884 Y-1.339 E4.14927
G1 X-17.917 Y-.788 E4.1768
G1 X-17.908 Y-0.056 E4.21333
G1 X-17.913 Y1.225 E4.27724
G1 X-17.905 Y1.718 E4.30184
G1 X-17.921 Y2.239 E4.32784
G1 X-17.922 Y2.712 E4.35144
G1 X-17.74 Y2.978 E4.36752
G0 F3600 X-17.553 Y3.046
G0 X-17.588 Y3.139
G0 X-20.33 Y1.887
G0 X-20.428 Y1.902
G1 F1800 X-20.591 Y1.59 E4.38508
G1 X-20.918 Y1.384 E4.40436
G1 X-21.299 Y1.339 E4.4235
G1 X-21.607 Y1.457 E4.43996
G1 X-21.905 Y1.747 E4.4607
G1 X-22.221 Y1.845 E4.47721
G1 X-22.618 Y1.848 E4.49702
G1 X-22.988 Y1.737 E4.51629
G1 X-23.275 Y1.542 E4.5336
G1 X-23.493 Y1.251 E4.55174
G1 X-23.645 Y0.847 E4.57327
G1 X-23.724 Y0.317 E4.60001
G1 X-23.733 Y-.241 E4.62785
G1 X-23.682 Y-.747 E4.65322
G1 X-23.546 Y-1.21 E4.6773
G1 X-23.353 Y-1.53 E4.69594
G1 X-23.082 Y-1.759 E4.71364
G1 X-22.739 Y-1.898 E4.73211
G1 X-22.383 Y-1.924 E4.74991
G1 X-22.11 Y-1.845 E4.76409
G1 X-21.683 Y-1.587 E4.78898
G1 X-21.256 Y-1.409 E4.81206
G1 X-20.906 Y-1.43 E4.82956
G1 X-20.614 Y-1.654 E4.84792
G1 X-20.459 Y-2.001 E4.86688
G1 X-20.5 Y-2.363 E4.88505
G1 X-20.741 Y-2.713 E4.90625
G1 X-21.172 Y-3.042 E4.93331
G1 X-21.671 Y-3.245 E4.96018
G1 X-22.245 Y-3.323 E4.98908
G1 X-22.795 Y-3.305 E5.01654
G1 X-23.329 Y-3.184 E5.04385
G1 X-23.869 Y-2.924 E5.07375
G1 X-24.293 Y-2.58 E5.10099
G1 X-24.635 Y-2.147 E5.12852
G1 X-24.894 Y-1.623 E5.15768
G1 X-25.051 Y-1.048 E5.18742
G1 X-25.123 Y-.462 E5.21688
G1 X-25.138 Y0.082 E5.24403
G1 X-25.106 Y0.604 E5.27012
G1 X-25.017 Y1.132 E5.29683
G1 X-24.86 Y1.643 E5.3235
G1 X-24.6 Y2.134 E5.35122
G1 X-24.249 Y2.555 E5.37857
G1 X-23.768 Y2.915 E5.40854
G1 X-23.266 Y3.133 E5.43584
G1 X-22.727 Y3.24 E5.46326
G1 X-22.166 Y3.249 E5.49125
G1 X-21.585 Y3.15 E5.52066
G1 X-21.104 Y2.933 E5.54698
G1 X-20.731 Y2.611 E5.57157
G1 X-20.482 Y2.204 E5.59537
G1 X-20.428 Y1.902 E5.61068
G0 F3600 X-20.52 Y1.725
G0 X-20.432 Y1.68
G0 X-17.764 Y3.009
G0 X-3.26 Y3.605
G0 X-2.446 Y3.325
G0 X-1.94 Y2.54
G0 X-2.038 Y2.526
G1 F1800 X-2.059 Y2.101 E5.63191
G1 X-2.221 Y1.71 E5.65302
G1 X-2.513 Y1.4 E5.67427
G1 X-2.892 Y1.211 E5.6954
G1 X-3.312 Y1.164 E5.71648
G1 X-3.724 Y1.265 E5.73764
G1 X-4.033 Y1.477 E5.75634
G1 X-4.074 Y1.505 E5.75872
G1 X-4.243 Y1.744 E5.7712
G1 X-4.318 Y1.849 E5.77559
G1 X-4.408 Y2.174 E5.78891
G1 X-4.432 Y2.258 E5.79315
G1 X-4.431 Y2.278 E5.79414
G1 X-4.392 Y2.68 E5.81429
G1 X-4.216 Y3.055 E5.83496
G1 X-4.054 Y3.241 E5.84727
G1 X-3.676 Y3.482 E5.86963
G1 X-3.26 Y3.566 E5.89081
G1 X-2.841 Y3.501 E5.91196
G1 X-2.471 Y3.295 E5.93309
G1 X-2.195 Y2.972 E5.95428
G1 X-2.038 Y2.526 E5.97787
G0 F3600 X-2.047 Y2.326
G0 X-1.947 Y2.323
G0 X-1.344 Y3.189
G0 X-.907 Y3.292
G1 F1800 X-.601 Y3.152 E5.99466
G1 X-.227 Y2.665 E6.0253
G1 X-0.023 Y2.269 E6.04752
G1 X-0.008 Y2.239 E6.04919
G1 X0.031 Y2.163 E6.05345
G1 X0.108 Y2.024 E6.06138
G1 X0.148 Y2.098
G1 X0.315 Y2.404 E6.07494
G1 X0.332 Y2.433 E6.07655
G1 X0.602 Y2.902 E6.10355
G1 X0.864 Y3.205 E6.12353
G1 X1.186 Y3.306 E6.14037
G1 X1.563 Y3.228 E6.15958
G1 X1.816 Y2.998 E6.17664
G1 X1.899 Y2.632 E6.19536
G1 X1.807 Y2.236 E6.21564
G1 X1.512 Y1.749 E6.24405
G1 X1.007 Y0.857 E6.29519
G1 X0.99 Y0.661 E6.305
G1 X1.084 Y0.387 E6.31945
G1 X1.365 Y-0.068 E6.34613
G1 X1.709 Y-.659 E6.38025
G1 X1.844 Y-1.039 E6.40037
G1 X1.764 Y-1.375 E6.4176
G1 X1.492 Y-1.654 E6.43704
G1 X1.17 Y-1.727 E6.45351
G1 X0.826 Y-1.568 E6.47242
G1 X0.501 Y-1.202 E6.49684
G1 X0.378 Y-.943 E6.51114
G1 X0.259 Y-.693 E6.52496
G1 X0.205 Y-.598 E6.53041
G1 X0.19 Y-.571 E6.53195
G1 X0.156 Y-.619 E6.53195
G1 X0.149 Y-.629
G1 X0.024 Y-.876 E6.54152
G1 X-0.091 Y-1.1 E6.55408
G1 X-.425 Y-1.542 E6.58172
G1 X-.753 Y-1.717 E6.60027
G1 X-1.11 Y-1.682 E6.61817
G1 X-1.409 Y-1.481 E6.63614
G1 X-1.536 Y-1.184 E6.65226
G1 X-1.469 Y-.784 E6.67249
G1 X-1.218 Y-.298 E6.69978
G1 X-.968 Y0.147 E6.72524
G1 X-.615 Y0.758 E6.76045
G1 X-.636 Y0.856 E6.76545
G1 X-.916 Y1.248 E6.78948
G1 X-1.48 Y2.223 E6.84568
G1 X-1.607 Y2.632 E6.86704
G1 X-1.54 Y2.954 E6.88345
G1 X-1.271 Y3.206 E6.90184
G1 X-.907 Y3.292 E6.9205
G0 F3600 X-.725 Y3.209
G0 X-.685 Y3.3
G0 X2.128 Y4.6
G0 X2.202 Y4.666
G1 F1800 X2.082 Y4.962 E6.93644
G1 X2.139 Y5.336 E6.95531
G1 X2.366 Y5.674 E6.97562
G1 X2.695 Y5.817 E6.99352
G1 X3.151 Y5.787 E7.01632
G1 X3.708 Y5.585 E7.04588
G1 X4.075 Y5.31 E7.06876
G1 X4.387 Y4.844 E7.09674
G1 X4.631 Y4.297 E7.12662
G1 X4.874 Y3.68 E7.1597
G1 X5.107 Y3.059 E7.19279
G1 X5.91 Y0.805 E7.31217
G1 X6.08 Y0.304 E7.33856
G1 X6.264 Y-.214 E7.36599
G1 X6.494 Y-.722 E7.39381
G1 X6.527 Y-1.095 E7.41249
G1 X6.37 Y-1.44 E7.4314
G1 X6.07 Y-1.686 E7.45076
G1 X5.755 Y-1.714 E7.46654
G1 X5.45 Y-1.504 E7.48501
G1 X5.182 Y-1.067 E7.51059
G1 X4.994 Y-.527 E7.53911
G1 X4.795 Y0.029 E7.56857
G1 X4.724 Y0.259 E7.58058
G1 X4.683 Y0.394 E7.58762
G1 X4.64 Y0.532 E7.59483
G1 X4.569 Y0.724 E7.60505
G1 X4.512 Y0.586 E7.60567
G1 X4.394 Y0.306 E7.61606
G1 X4.344 Y0.175 E7.62224
G1 X4.187 Y-.229 E7.64386
G1 X4.012 Y-.698 E7.66884
G1 X3.866 Y-1.218 E7.69578
G1 X3.671 Y-1.513 E7.71342
G1 X3.326 Y-1.691 E7.73279
G1 X2.946 Y-1.71 E7.75177
G1 X2.659 Y-1.555 E7.76805
G1 X2.524 Y-1.245 E7.78492
G1 X2.545 Y-.773 E7.80849
G1 X2.734 Y-.217 E7.83779
G1 X2.935 Y0.269 E7.86402
G1 X3.14 Y0.822 E7.89345
G1 X3.363 Y1.41 E7.92482
G1 X3.556 Y1.94 E7.95296
G1 X3.773 Y2.42 E7.97924
G1 X3.843 Y2.705 E7.99388
G1 X3.768 Y3.001 E8.00912
G1 X3.384 Y3.917 E8.05867
G1 X3.206 Y4.192 E8.07501
G1 X2.977 Y4.36 E8.08918
G1 X2.509 Y4.501 E8.11357
G1 X2.202 Y4.666 E8.13096
G0 F3600 X2.127 Y4.851
G0 X2.035 Y4.814
G0 X2.341 Y5.704
G0 X10.872 Y3.062
G0 X10.944 Y3.13
G1 F1800 X10.72 Y3.372 E8.14741
G1 X10.653 Y3.444 E8.15232
G1 X10.561 Y3.536 E8.15881
G1 X10.299 Y3.799 E8.17733
G1 X9.936 Y4.138 E8.20211
G1 X9.546 Y4.475 E8.22782
G1 X9.092 Y4.844 E8.25701
G1 X8.674 Y5.153 E8.28294
G1 X8.252 Y5.448 E8.30863
G1 X7.765 Y5.76 E8.33749
G1 X7.342 Y6.008 E8.36195
G1 X6.895 Y6.252 E8.38736
G1 X6.448 Y6.477 E8.41232
G1 X5.98 Y6.693 E8.43804
G1 X5.502 Y6.892 E8.46387
G1 X5.021 Y7.074 E8.48953
G1 X4.514 Y7.245 E8.51622
G1 X4.007 Y7.394 E8.54259
G1 X3.521 Y7.522 E8.56766
G1 X3.037 Y7.629 E8.59239
G1 X2.533 Y7.724 E8.61798
G1 X2.044 Y7.799 E8.64266
G1 X1.539 Y7.861 E8.66804
G1 X0.966 Y7.907 E8.69672
G1 X0.458 Y7.93 E8.72209
G1 X-0.046 Y7.935 E8.74724
G1 X-.566 Y7.921 E8.77319
G1 X-1.257 Y7.883 E8.80772
G1 X-2.885 Y7.781 E8.8891
G1 X-4.209 Y7.702 E8.95527
G1 X-4.948 Y7.655 E8.99221
G1 X-21.53 Y6.644 E9.82103
G1 X-24.229 Y6.477 E9.95594
G1 X-24.673 Y6.392 E9.97849
G1 X-25.066 Y6.191 E10.00052
G1 X-25.362 Y5.907 E10.02098
G1 X-25.57 Y5.546 E10.04177
G1 X-25.682 Y5.107 E10.06437
G1 X-25.696 Y4.634 E10.08798
G1 X-25.696 Y-4.891 E10.56318
G1 X-25.626 Y-5.374 E10.58753
G1 X-25.462 Y-5.76 E10.60846
G1 X-25.211 Y-6.071 E10.62839
G1 X-24.874 Y-6.308 E10.64895
G1 X-24.458 Y-6.45 E10.67088
G1 X-24.229 Y-6.478 E10.68239
G1 X-.703 Y-7.916 E11.8583
G1 X-0.091 Y-7.935 E11.88884
G1 X0.503 Y-7.929 E11.91848
G1 X1.1 Y-7.899 E11.9483
G1 X1.658 Y-7.848 E11.97626
G1 X2.204 Y-7.778 E12.00372
G1 X2.755 Y-7.686 E12.03159
G1 X3.308 Y-7.571 E12.05977
G1 X3.85 Y-7.438 E12.08761
G1 X4.374 Y-7.288 E12.1148
G1 X4.877 Y-7.124 E12.1412
G1 X5.376 Y-6.942 E12.1677
G1 X5.847 Y-6.749 E12.19309
G1 X6.321 Y-6.537 E12.219
G1 X6.777 Y-6.315 E12.2443
G1 X7.647 Y-5.831 E12.29397
G1 X8.076 Y-5.564 E12.31918
G1 X8.503 Y-5.275 E12.3449
G1 X8.976 Y-4.933 E12.37402
G1 X9.379 Y-4.613 E12.3997
G1 X9.781 Y-4.274 E12.42593
G1 X10.164 Y-3.928 E12.45168
G1 X10.524 Y-3.575 E12.47684
G1 X10.876 Y-3.207 E12.50224
G1 X11.324 Y-2.702 E12.53592
G1 X11.667 Y-2.282 E12.56298
G1 X11.962 Y-1.891 E12.58741
G1 X12.256 Y-1.474 E12.61287
G1 X12.528 Y-1.058 E12.63767
G1 X12.801 Y-.605 E12.66405
G1 X12.949 Y-.242 E12.68361
G1 X12.974 Y0.091 E12.70027
G1 X12.875 Y0.467 E12.71967
G1 X12.37 Y1.303 E12.7684
G1 X12.018 Y1.815 E12.79939
G1 X11.69 Y2.254 E12.82673
G1 X11.382 Y2.634 E12.85114
G1 X11.068 Y2.995 E12.87501
G1 X11.041 Y3.026 E12.87706
G1 X10.944 Y3.13 E12.88415
G0 F3600 X10.808 Y3.277
G0 X10.736 Y3.209
G0 X10.7 Y-.919
G0 X10.436 Y-1.704
G0 X10.382 Y-1.621
G1 F1800 X10.012 Y-1.716 E12.90321
G1 X9.476 Y-1.714 E12.92995
G1 X8.413 Y-1.717 E12.98299
G1 X7.835 Y-1.716 E13.01182
G1 X7.394 Y-1.634 E13.0342
G1 X7.139 Y-1.426 E13.05062
G1 X7.03 Y-1.063 E13.06953
G1 X7.11 Y-.675 E13.08929
G1 X7.362 Y-.435 E13.10665
G1 X7.871 Y-.332 E13.13256
G1 X8.321 Y-.33 E13.15501
G1 X8.439 Y-.33 E13.1609
G1 X8.805 Y-.363 E13.17923
G1 X8.666 Y-.169 E13.18212
G1 X8.598 Y-0.073 E13.18719
G1 X7.625 Y1.288 E13.27065
G1 X7.305 Y1.723 E13.2976
G1 X7.049 Y2.198 E13.32452
G1 X6.994 Y2.599 E13.34471
G1 X7.116 Y3.007 E13.36595
G1 X7.373 Y3.249 E13.38357
G1 X7.76 Y3.303 E13.40306
G1 X8.298 Y3.274 E13.42994
G1 X8.904 Y3.283 E13.46018
G1 X9.576 Y3.283 E13.4937
G1 X10.117 Y3.269 E13.5207
G1 X10.359 Y3.193 E13.53336
G1 X10.484 Y3.154 E13.53937
G1 X10.689 Y2.894 E13.55318
G1 X10.694 Y2.853 E13.55524
G1 X10.742 Y2.511 E13.57247
G1 X10.616 Y2.167 E13.59074
G1 X10.333 Y1.974 E13.60783
G1 X9.807 Y1.887 E13.63443
G1 X9.354 Y1.903 E13.65705
G1 X9.255 Y1.906 E13.66199
G1 X8.9 Y1.913 E13.6797
G1 X9.005 Y1.748 E13.6817
G1 X9.058 Y1.665 E13.68605
G1 X9.163 Y1.499 E13.69585
G1 X9.526 Y0.998 E13.72671
G1 X9.919 Y0.437 E13.76088
G1 X10.266 Y-0.05 E13.79072
G1 X10.561 Y-.531 E13.81887
G1 X10.661 Y-.921 E13.83895
G1 X10.597 Y-1.345 E13.86035
G1 X10.382 Y-1.621 E13.8778
G0 F3600 X10.189 Y-1.67
G0 X10.061 Y-2.106
;TYPE:SKIN
G1 F1800 X9.476 Y-2.104 E13.90699
G1 X8.415 Y-2.107 E13.95992
G1 X7.799 Y-2.106 E13.99065
G1 X7.224 Y-1.999 E14.01983
G1 X6.8 Y-1.652 E14.04717
G1 X6.761 Y-1.524 E14.05384
G1 X6.688 Y-1.684 E14.06262
G1 X6.224 Y-2.064 E14.09254
G1 X5.65 Y-2.115 E14.12129
G1 X5.161 Y-1.779 E14.15089
G1 X4.827 Y-1.235 E14.18274
G1 X4.604 Y-.593 E14.21664
G1 X4.537 Y-.406 E14.22655
G1 X4.387 Y-.806 E14.24787
G1 X4.225 Y-1.382 E14.27772
G1 X3.94 Y-1.813 E14.3035
G1 X3.43 Y-2.077 E14.33215
G1 X2.856 Y-2.105 E14.36082
G1 X2.355 Y-1.834 E14.38924
G1 X2.162 Y-1.39 E14.41339
G1 X2.119 Y-1.57 E14.42262
G1 X1.691 Y-2.009 E14.45321
G1 X1.127 Y-2.137 E14.48207
G1 X0.588 Y-1.888 E14.51169
