;FLAVOR:Marlin
;TIME:1572
;Filament used: 1.57181m
;Layer height: 0.3
;MINX:-29.826
;MINY:-19.438
;MINZ:0.3
;MAXX:29.543
;MAXY:18.942
;MAXZ:59.7
;Generated with Cura_SteamEngine master
M140 S60
M105
M190 S60
M104 S200
M105
M109 S200
M82 ;absolute extrusion mode
G28 ;Home
G1 Z15.0 F6000 ;Move the platform down 15mm
;Prime the extruder
G92 E0
G1 F200 E3
G92 E0
G92 E0
G92 E0
G1 F1500 E-6.5
;LAYER_COUNT:199
;LAYER:0
M107 P1
;MESH:Baby_Groot_Keychain.stl
G0 F3600 X18.434 Y-1.492 Z0.3
;TYPE:WALL-OUTER
G1 F1500 E0
G1 F1800 X18.676 Y-1.646 E0.01431
G1 X19.217 Y-1.99 E0.0463
G1 X19.378 Y-2.029 E0.05456
G1 X19.738 Y-2.664 E0.09098
G1 X19.925 Y-3 E0.11016
G1 X20.533 Y-4.645 E0.19766
G1 X20.857 Y-5.257 E0.23221
G1 X21.134 Y-5.696 E0.2581
G1 X21.811 Y-6.668 E0.3172
G1 X21.899 Y-6.91 E0.33005
G1 X22.24 Y-7.653 E0.37083
G1 X23.04 Y-8.851 E0.4427
G1 X23.413 Y-9.375 E0.47479
G1 X23.626 Y-9.543 E0.48833
G1 X23.671 Y-9.579 E0.4912
G1 X23.934 Y-9.591 E0.50433
G1 X23.991 Y-9.593 E0.50718
G1 X24.008 Y-9.538 E0.51005
G1 X24.088 Y-9.282 E0.52343
G1 X24.068 Y-9.229 E0.52626
G1 X23.923 Y-8.853 E0.54636
G1 X23.332 Y-7.917 E0.60159
G1 X22.626 Y-6.86 E0.66501
G1 X21.86 Y-5.335 E0.75015
G1 X21.082 Y-3.921 E0.83067
G1 X20.789 Y-3.114 E0.8735
G1 X20.533 Y-2.481 E0.90756
G1 X20.613 Y-2.155 E0.92431
G1 X20.792 Y-1.915 E0.93925
G1 X20.809 Y-1.892 E0.94068
G1 X21.152 Y-1.815 E0.95821
G1 X21.171 Y-1.836 E0.95963
G1 X21.428 Y-2.119 E0.9787
G1 X21.724 Y-2.757 E1.01379
G1 X21.961 Y-3.071 E1.03341
G1 X22.385 Y-3.386 E1.05977
G1 X23.032 Y-3.978 E1.10352
G1 X23.227 Y-4.178 E1.11745
G1 X23.55 Y-4.59 E1.14357
G1 X23.644 Y-4.706 E1.15102
G1 X25.654 Y-6.981 E1.30248
G1 X26.398 Y-7.721 E1.35483
G1 X27.044 Y-8.261 E1.39683
G1 X27.236 Y-8.371 E1.40787
G1 X27.291 Y-8.402 E1.41102
G1 X27.556 Y-8.381 E1.42429
G1 X27.564 Y-8.381 E1.42468
G1 X27.637 Y-8.335 E1.42899
G1 X27.625 Y-8.296 E1.4309
G1 X27.606 Y-8.236 E1.43386
G1 X27.527 Y-7.992 E1.44665
G1 X27.523 Y-7.986 E1.44701
G1 X27.204 Y-7.536 E1.47453
G1 X25.275 Y-5.311 E1.62144
G1 X24.852 Y-4.852 E1.65259
G1 X24.609 Y-4.506 E1.67368
G1 X24.087 Y-3.934 E1.71231
G1 X23.495 Y-3.399 E1.75212
G1 X23.175 Y-2.937 E1.78016
G1 X23.063 Y-2.801 E1.78895
G1 X22.194 Y-1.886 E1.85191
G1 X21.848 Y-1.484 E1.87837
G1 X21.772 Y-1.118 E1.89702
G1 X21.911 Y-.734 E1.91739
G1 X22.121 Y-.557 E1.93109
G1 X22.879 Y-.519 E1.96896
G1 X22.925 Y-.88 E1.98711
G1 X23.086 Y-1.01 E1.99744
G1 X23.6 Y-1.453 E2.03129
G1 X23.798 Y-1.676 E2.04617
G1 X24.896 Y-2.441 E2.11293
G1 X25.158 Y-2.657 E2.12987
G1 X26.025 Y-3.317 E2.18424
G1 X26.527 Y-3.648 E2.21424
G1 X26.982 Y-4.035 E2.24404
G1 X28.413 Y-5.102 E2.33309
G1 X28.553 Y-5.219 E2.34219
G1 X28.725 Y-5.527 E2.35979
G1 X28.819 Y-5.585 E2.3653
G1 X29.023 Y-5.625 E2.37567
G1 X29.339 Y-5.561 E2.39176
G1 X29.447 Y-5.539 E2.39726
G1 X29.427 Y-5.335 E2.40749
G1 X29.391 Y-5.23 E2.41302
G1 X29.33 Y-5.052 E2.42241
G1 X29.161 Y-4.787 E2.43809
G1 X28.838 Y-4.429 E2.46215
G1 X28.599 Y-4.252 E2.47698
G1 X28.18 Y-3.908 E2.50403
G1 X27.591 Y-3.453 E2.54116
G1 X27.148 Y-3.26 E2.56527
G1 X26.307 Y-2.654 E2.61699
G1 X25.641 Y-2.163 E2.65827
G1 X24.499 Y-1.341 E2.72847
G1 X23.927 Y-.894 E2.76468
G1 X23.359 Y-.361 E2.80354
G1 X23.239 Y-.249 E2.81173
G1 X23.349 Y0.008 E2.82568
G1 X23.513 Y0.00 E2.83271
G1 X24.16 Y-0.033 E2.86503
G1 X26.077 Y-1.04 E2.97306
G1 X26.616 Y-1.288 E3.00266
G1 X27.231 Y-1.59 E3.03684
G1 X28.264 Y-2.066 E3.09359
G1 X28.908 Y-2.212 E3.12653
G1 X29.213 Y-2.254 E3.14189
G1 X29.254 Y-2.259 E3.14395
G1 X29.426 Y-2.196 E3.15309
G1 X29.432 Y-2.194 E3.15341
G1 X29.525 Y-2.051 E3.16192
G1 X29.516 Y-2.01 E3.16401
G1 X29.468 Y-1.804 E3.17457
G1 X29.463 Y-1.8 E3.17489
G1 X29.12 Y-1.479 E3.19832
G1 X28.715 Y-1.237 E3.22186
G1 X28.045 Y-.944 E3.25834
G1 X26.819 Y-.289 E3.32769
G1 X26.022 Y0.042 E3.37075
G1 X25.009 Y0.436 E3.42497
G1 X24.31 Y0.646 E3.46139
G1 X24.015 Y0.797 E3.47792
G1 X23.188 Y1.15 E3.52278
G1 X22.376 Y1.57 E3.56839
G1 X22.153 Y1.662 E3.58042
G1 X21.949 Y1.614 E3.59088
G1 X21.469 Y1.36 E3.61797
G1 X20.691 Y1.797 E3.66249
G1 X20.253 Y1.865 E3.68461
G1 X20.239 Y1.868 E3.68532
G1 X20.226 Y1.699 E3.69038
G1 X19.57 Y1.558 E3.72385
G1 X19.318 Y1.488 E3.7369
G1 X19.107 Y1.59 E3.74859
G1 X18.952 Y1.665 E3.75718
G1 X18.862 Y1.56 E3.76408
G1 X18.833 Y1.39 E3.77043
G1 X18.798 Y1.191 E3.78052
G1 X18.675 Y1 E3.79185
G1 X18.596 Y0.878 E3.7991
G1 X18.345 Y0.912 E3.81174
G1 X18.294 Y1.048 E3.81898
G1 X18.243 Y1.185 E3.82628
G1 X18.154 Y1.087 E3.83288
G1 X17.905 Y0.813 E3.85135
G1 X17.634 Y0.336 E3.87872
G1 X17.53 Y-.112 E3.90167
G1 X17.277 Y-1.809 E3.98727
G1 X17.209 Y-2.639 E4.02881
G1 X17.174 Y-3.272 E4.06044
G1 X17.216 Y-3.718 E4.08279
G1 X17.318 Y-5.264 E4.16009
G1 X17.461 Y-5.784 E4.187
G1 X17.525 Y-5.9 E4.19361
G1 X17.591 Y-6.021 E4.20048
G1 X17.701 Y-6.222 E4.21191
G1 X17.849 Y-6.195 E4.21942
G1 X17.856 Y-5.877 E4.22953
G1 X17.881 Y-5.742 E4.23558
G1 X17.963 Y-5.301 E4.25796
G1 X17.976 Y-5.12 E4.26701
G1 X17.997 Y-4.371 E4.30439
G1 X17.979 Y-4.061 E4.31989
G1 X17.978 Y-3.441 E4.35082
G1 X18.133 Y-2.886 E4.37957
G1 X18.374 Y-1.772 E4.43643
G1 X18.434 Y-1.492 E4.44485
G0 F3600 X18.603 Y-1.599
G0 X19.371 Y-1.626
;TYPE:SKIN
G1 F1800 X19.634 Y-1.69 E4.45835
G1 X20.078 Y-2.473 E4.50326
G1 X20.192 Y-2.678 E4.51496
G1 X20.124 Y-2.51 E4.524
G1 X20.253 Y-1.985 E4.55097
G1 X20.583 Y-1.543 E4.57849
G1 X21.288 Y-1.384 E4.61455
G1 X21.471 Y-1.586 E4.62815
G1 X21.368 Y-1.089 E4.65347
G1 X21.58 Y-.503 E4.68456
G1 X21.971 Y-.174 E4.71005
G1 X22.866 Y-.129 E4.75476
G1 X23.097 Y0.411 E4.78407
G1 X24.001 Y0.366 E4.82922
G1 X23.861 Y0.438 E4.83708
G1 X23.022 Y0.797 E4.8826
G1 X22.209 Y1.217 E4.92826
G1 X22.088 Y1.246 E4.93447
G1 X21.463 Y0.916 E4.96973
G1 X20.594 Y1.404 E5.01945
G1 X20.592 Y1.379 E5.0207
G1 X19.657 Y1.177 E5.06842
G1 X19.281 Y1.073 E5.08789
G1 X19.182 Y1.121 E5.09338
G1 X19.169 Y1.047 E5.09712
G1 X18.789 Y0.459 E5.13205
G1 X18.198 Y0.539 E5.16181
G1 X18.001 Y0.192 E5.18171
G1 X17.914 Y-.184 E5.20097
G1 X17.663 Y-1.866 E5.28581
G1 X17.602 Y-2.604 E5.32276
G1 X17.566 Y-3.272 E5.35613
G1 X17.588 Y-3.388 E5.36202
G1 X17.758 Y-2.779 E5.39357
G1 X18.171 Y-.862 E5.4914
G1 X19.371 Y-1.626 E5.56237
G0 F3600 X21.164 Y-1.777
G0 X21.831 Y-2.061
G1 F1800 X22.058 Y-2.553 E5.58941
G1 X22.239 Y-2.792 E5.60436
G1 X22.633 Y-3.085 E5.62886
G1 X23.097 Y-3.509 E5.66022
G1 X22.78 Y-3.07 E5.68723
G1 X21.905 Y-2.147 E5.75069
G1 X21.831 Y-2.061 E5.75635
G0 F3600 X20.788 Y-1.859
G0 X20.773 Y-4.171
G1 F1800 X20.889 Y-4.483 E5.77295
G1 X21.199 Y-5.068 E5.80598
G1 X21.593 Y-5.672 E5.84196
G1 X21.502 Y-5.492 E5.85202
G1 X20.773 Y-4.171 E5.9273
G0 F3600 X20.494 Y-2.483
G0 X21.126 Y-1.786
G0 X23.592 Y-4.012
G1 F1800 X23.942 Y-4.454 E5.95543
G1 X25.929 Y-6.704 E6.10519
G1 X26.2 Y-6.974 E6.12427
G1 X24.988 Y-5.576 E6.21658
G1 X24.548 Y-5.097 E6.24903
G1 X24.306 Y-4.752 E6.27005
G1 X23.808 Y-4.206 E6.30692
G1 X23.592 Y-4.012 E6.32141
G0 F3600 X21.813 Y-1.501
G0 X22.107 Y-.52
G0 X23.328 Y0.041
G0 X24.714 Y0.117
G1 F1800 X26.24 Y-.685 E6.40741
G1 X26.784 Y-.935 E6.43728
G1 X27.399 Y-1.237 E6.47146
G1 X28.395 Y-1.696 E6.52618
G1 X28.904 Y-1.811 E6.55221
G1 X28.532 Y-1.583 E6.57398
G1 X27.875 Y-1.295 E6.60977
G1 X26.652 Y-.642 E6.67894
G1 X25.831 Y-.302 E6.72327
G1 X24.891 Y0.064 E6.7736
G1 X24.714 Y0.117 E6.78281
G0 F3600 X22.669 Y0.042
G1 F1800 X22.795 Y0.168 E6.7917
G0 F3600 X22.78 Y0.718
G1 F1800 X22.073 Y0.011 E6.84159
G1 X22.003 Y-0.059
G0 F3600 X21.844 Y0.914
G1 F1800 X19.465 Y-1.464 E7.0094
G0 F3600 X19.114 Y-1.25
G1 F1800 X21.213 Y0.848 E7.15746
G0 F3600 X20.851 Y1.052
G1 F1800 X18.768 Y-1.03 E7.30439
G0 F3600 X18.422 Y-.81
G1 F1800 X20.382 Y1.149 E7.44265
G0 F3600 X19.656 Y0.989
G1 F1800 X18.077 Y-.589 E7.55402
G0 F3600 X18.152 Y0.05
G1 F1800 X18.427 Y0.325 E7.57342
G0 F3600 X19.827 Y-1.668
G1 F1800 X22.406 Y0.91 E7.75535
G1 X22.476 Y0.98
G0 F3600 X21.291 Y-.77
G1 F1800 X20.738 Y-1.322 E7.79433
G0 F3600 X20.397 Y-2.795
;TYPE:SKIN
G1 F1800 X20.136 Y-3.056 E7.80354
G0 F3600 X20.212 Y-3.263
G1 F1800 X20.528 Y-2.947 E7.81469
G0 F3600 X20.609 Y-3.149
G1 F1800 X20.289 Y-3.469 E7.82598
G0 F3600 X20.365 Y-3.676
G1 F1800 X20.685 Y-3.355 E7.83728
G0 F3600 X20.76 Y-3.563
G1 F1800 X20.441 Y-3.882 E7.84854
G0 F3600 X20.548 Y-4.058
G1 F1800 X20.835 Y-3.771 E7.85866
G0 F3600 X21.899 Y-5.818
G1 F1800 X21.626 Y-6.091 E7.86829
G0 F3600 X21.743 Y-6.257
G1 F1800 X21.994 Y-6.006 E7.87715
G0 F3600 X22.089 Y-6.194
G1 F1800 X21.859 Y-6.424 E7.88526
G0 F3600 X21.974 Y-6.593
G1 F1800 X22.184 Y-6.383 E7.89267
G0 F3600 X22.278 Y-6.571
G1 F1800 X22.049 Y-6.8 E7.90075
G0 F3600 X22.135 Y-6.997
G1 F1800 X22.373 Y-6.759 E7.90914
G0 F3600 X22.468 Y-6.947
G1 F1800 X22.224 Y-7.191 E7.91775
G0 F3600 X22.313 Y-7.385
G1 F1800 X22.581 Y-7.117 E7.9272
G0 F3600 X22.694 Y-7.286
G1 F1800 X22.403 Y-7.577 E7.93747
G0 F3600 X22.517 Y-7.747
G1 F1800 X22.807 Y-7.456 E7.94772
G0 F3600 X22.92 Y-7.626
G1 F1800 X22.63 Y-7.916 E7.95795
G0 F3600 X22.744 Y-8.085
G1 F1800 X23.034 Y-7.795 E7.96818
G0 F3600 X23.147 Y-7.964
G1 F1800 X22.857 Y-8.255 E7.97843
G0 F3600 X22.97 Y-8.425
G1 F1800 X23.258 Y-8.137 E7.98859
G0 F3600 X23.367 Y-8.31
G1 F1800 X23.083 Y-8.594 E7.99861
G0 F3600 X23.197 Y-8.763
G1 F1800 X23.477 Y-8.483 E8.00848
G0 F3600 X23.586 Y-8.657
G1 F1800 X23.314 Y-8.929 E8.01808
G0 F3600 X23.432 Y-9.094
G1 F1800 X23.695 Y-8.831 E8.02736
G0 F3600 X23.792 Y-9.017
G1 F1800 X23.553 Y-9.256 E8.03579
G0 F3600 X23.711 Y-9.381
G1 F1800 X23.871 Y-9.221 E8.04143
G0 F3600 X21.046 Y-3.937
G0 X20.494 Y-2.483
G0 X21.164 Y-1.777
G0 X26.294 Y-7.363
G1 F1800 X26.573 Y-7.084 E8.05128
G0 F3600 X26.705 Y-7.235
G1 F1800 X26.435 Y-7.505 E8.0608
G0 F3600 X26.582 Y-7.641
G1 F1800 X26.836 Y-7.387 E8.06976
G0 F3600 X26.968 Y-7.538
G1 F1800 X26.736 Y-7.77 E8.07795
G0 F3600 X26.891 Y-7.898
G1 F1800 X27.094 Y-7.694 E8.08513
G0 F3600 X27.212 Y-7.86
G1 F1800 X27.045 Y-8.027 E8.09102
G0 F3600 X27.208 Y-8.146
G1 F1800 X27.33 Y-8.024 E8.09532
G0 F3600 X21.164 Y-1.777
G0 X18.419 Y-1.456
G0 X17.987 Y-3.238
G0 X17.752 Y-5.44
G1 F1800 X17.594 Y-5.598 E8.10089
G0 F3600 X17.534 Y-5.376
G1 F1800 X17.795 Y-5.115 E8.1101
G0 F3600 X17.803 Y-4.823
G1 F1800 X17.488 Y-5.138 E8.12121
G0 F3600 X17.471 Y-4.873
G1 F1800 X17.812 Y-4.532 E8.13324
G0 F3600 X17.809 Y-4.252
G1 F1800 X17.453 Y-4.608 E8.1458
G0 F3600 X17.435 Y-4.343
G1 F1800 X17.797 Y-3.981 E8.15857
G0 F3600 X17.797 Y-3.698
G1 F1800 X17.418 Y-4.077 E8.17194
G0 F3600 X17.401 Y-3.812
G1 F1800 X17.628 Y-3.585 E8.17995
G0 F3600 X18.419 Y-1.456
G0 X22.107 Y-.52
G0 X27.23 Y-3.734
;TYPE:SKIN
G1 F1800 X28.623 Y-4.772 E8.26662
G1 X28.359 Y-4.56 E8.28351
G1 X27.901 Y-4.184 E8.31308
G1 X27.393 Y-3.791 E8.34512
G1 X27.23 Y-3.734 E8.35373
G0 F3600 X27.107 Y-3.439
;TYPE:SKIN
G1 F1800 X26.855 Y-3.691 E8.36262
G0 F3600 X26.703 Y-3.56
G1 F1800 X26.934 Y-3.329 E8.37077
G0 F3600 X26.77 Y-3.21
G1 F1800 X26.54 Y-3.44 E8.37889
G0 F3600 X26.37 Y-3.328
G1 F1800 X26.605 Y-3.092 E8.3872
G0 F3600 X26.441 Y-2.974
G1 F1800 X26.199 Y-3.215 E8.39572
G0 F3600 X26.034 Y-3.097
G1 F1800 X26.277 Y-2.855 E8.40427
G0 F3600 X26.113 Y-2.736
G1 F1800 X25.873 Y-2.976 E8.41274
G0 F3600 X25.713 Y-2.853
G1 F1800 X25.95 Y-2.616 E8.4211
G0 F3600 X25.788 Y-2.496
G1 F1800 X25.552 Y-2.731 E8.42941
G0 F3600 X25.392 Y-2.609
G1 F1800 X25.625 Y-2.375 E8.43764
G0 F3600 X25.461 Y-2.257
G1 F1800 X25.233 Y-2.485 E8.44569
G0 F3600 X25.078 Y-2.357
G1 F1800 X25.297 Y-2.138 E8.45341
G0 F3600 X25.132 Y-2.02
G1 F1800 X24.917 Y-2.235 E8.461
G0 F3600 X24.75 Y-2.119
G1 F1800 X24.967 Y-1.902 E8.46865
G0 F3600 X24.803 Y-1.783
G1 F1800 X24.583 Y-2.003 E8.47641
G0 F3600 X24.417 Y-1.887
G1 F1800 X24.639 Y-1.665 E8.48424
G0 F3600 X24.474 Y-1.547
G1 F1800 X24.25 Y-1.771 E8.49215
G0 F3600 X24.083 Y-1.655
G1 F1800 X24.313 Y-1.425 E8.50026
G0 F3600 X24.154 Y-1.301
G1 F1800 X23.917 Y-1.538 E8.50862
G0 F3600 X23.783 Y-1.389
G1 F1800 X23.995 Y-1.177 E8.5161
G0 F3600 X23.837 Y-1.052
G1 F1800 X23.639 Y-1.25 E8.52309
G0 F3600 X23.487 Y-1.119
G1 F1800 X23.688 Y-.918 E8.53018
G0 F3600 X23.542 Y-.782
G1 F1800 X23.335 Y-.988 E8.53746
G0 F3600 X23.183 Y-.858
G1 F1800 X23.396 Y-.644 E8.54499
G0 F3600 X23.25 Y-.508
G1 F1800 X23.079 Y-.678 E8.55101
G0 F3600 X23.048 Y-.427
G1 F1800 X23.104 Y-.371 E8.55298
G0 F3600 X22.837 Y-.121
G1 F1500 E2.05298
G0 F3600 X22.107 Y-.52
G0 X20.788 Y-1.859
G0 X20.874 Y-5.247
G0 X20.126 Y-5.718
G0 X16.629 Y-10.55
G0 X16.075 Y-11.24
G0 X15.518 Y-13.746
G0 X15.532 Y-13.844
;TYPE:WALL-OUTER
G1 F1500 E8.55298
G1 F1800 X15.743 Y-14.111 E8.56996
G1 X15.744 Y-14.112 E8.57003
G1 X15.932 Y-14.349 E8.58512
G1 X16.181 Y-14.409 E8.5979
G1 X16.462 Y-14.399 E8.61193
G1 X17.117 Y-14.206 E8.646
G1 X17.232 Y-14.147 E8.65245
G1 X17.51 Y-13.732 E8.67737
G1 X17.512 Y-13.55 E8.68645
G1 X17.336 Y-13.088 E8.71111
G1 X17.113 Y-12.582 E8.7387
G1 X17.018 Y-12.425 E8.74785
G1 X16.74 Y-11.889 E8.77798
G1 X16.442 Y-11.509 E8.80207
G1 X15.889 Y-11.066 E8.83742
G1 X15.298 Y-10.545 E8.87673
G1 X15.132 Y-10.449 E8.8863
G1 X14.499 Y-9.512 E8.94271
G1 X14.149 Y-9.134 E8.96841
G1 X13.88 Y-8.708 E8.99355
G1 X13.405 Y-8.491 E9.0196
G1 X13.202 Y-8.582 E9.0307
G1 X12.696 Y-7.82 E9.07633
G1 X12.428 Y-7.45 E9.09913
G1 X12.092 Y-7.13 E9.12228
G1 X11.607 Y-6.563 E9.1595
G1 X11.305 Y-5.925 E9.19472
G1 X11.236 Y-5.778 E9.20282
G1 X11.422 Y-5.58 E9.21637
G1 X11.573 Y-5.64 E9.22326
G1 X11.646 Y-5.669 E9.22718
G1 X11.978 Y-5.801 E9.245
G1 X12 Y-5.73 E9.24871
G1 X11.882 Y-5.393 E9.25993
G1 X11.124 Y-3.242 E9.37371
G1 X10.817 Y-2.722 E9.40384
G1 X10.671 Y-2.48 E9.41794
G1 X10.333 Y-2.141 E9.44182
G1 X9.869 Y-1.503 E9.48118
G1 X9.868 Y-1.502 E9.48125
G1 X9.712 Y-1.287 E9.4945
G1 X9.963 Y-1.198 E9.50247
G1 X10.152 Y-1.13 E9.51249
G1 X10.155 Y-.975 E9.52022
G1 X10.248 Y-.198 E9.55926
G1 X10.238 Y0.031 E9.5707
G1 X9.81 Y1.219 E9.6337
G1 X9.689 Y1.495 E9.64873
G1 X9.642 Y1.79 E9.66364
G1 X9.408 Y2.446 E9.69838
G1 X9.091 Y2.4 E9.71436
G1 X9.09 Y2.436
G1 X9.069 Y3.102 E9.74761
G1 X8.993 Y3.317 E9.75898
G1 X8.579 Y3.79 E9.79035
G1 X8.578 Y3.791 E9.79042
G1 X8.265 Y4.094 E9.81215
G1 X8.429 Y4.16 E9.81425
G1 X8.43 Y4.16 E9.8143
G1 X8.668 Y4.256 E9.82711
G1 X8.751 Y4.289 E9.83156
G1 X8.77 Y4.297 E9.83259
G1 X8.653 Y4.536 E9.8414
G1 X8.597 Y4.606 E9.84526
G1 X8.31 Y4.965 E9.86819
G1 X7.875 Y5.287 E9.89519
G1 X7.685 Y5.373 E9.9056
G1 X7.547 Y5.624 E9.91989
G1 X7.429 Y5.84 E9.93217
G1 X7.675 Y5.85 E9.93923
G1 X7.676 Y5.851 E9.9393
G1 X7.677 Y5.852 E9.93937
G1 X7.894 Y5.86 E9.95021
G1 X7.866 Y6.076 E9.95706
G1 X7.772 Y6.793 E9.99313
G1 X7.608 Y7.009 E10.00666
G1 X7.691 Y7.142 E10.01449
G1 X7.414 Y7.725 E10.04669
G1 X6.903 Y8.438 E10.09045
G1 X6.465 Y8.924 E10.12309
G1 X5.85 Y9.407 E10.16211
G1 X5.516 Y9.44 E10.17885
G1 X5.503 Y9.715 E10.19259
G1 X4.901 Y10.089 E10.22794
G1 X4.228 Y10.519 E10.26779
G1 X3.999 Y10.753 E10.28412
G1 X3.497 Y11.036 E10.31287
G1 X3.409 Y10.958 E10.31874
G1 X3.393 Y10.944 E10.3198
G1 X3.237 Y11.152 E10.32835
G1 X3.227 Y11.144
G1 X3.151 Y11.08 E10.33331
G1 X2.859 Y11.34 E10.35282
G1 X2.396 Y11.431 E10.37636
G1 X2.232 Y11.359 E10.38529
G1 X2.113 Y11.448 E10.39271
G1 X1.798 Y11.438 E10.40843
G1 X1.277 Y11.214 E10.43672
G1 X1.245 Y11.313 E10.44191
G1 X1.133 Y11.279 E10.44775
G1 X1.148 Y11.192 E10.44885
G1 X1.237 Y10.69 E10.47429
G1 X1.237 Y10.689 E10.47434
G1 X0.863 Y10.561 E10.49406
G1 X0.861 Y10.561 E10.49416
G1 X0.468 Y10.535 E10.51381
G1 X-.762 Y10.229 E10.57705
G1 X-1.342 Y10.52 E10.60942
G1 X-1.723 Y10.747 E10.63155
G1 X-1.827 Y11.208 E10.65512
G1 X-2.195 Y11.565 E10.6807
G1 X-2.344 Y11.596 E10.68829
G1 X-3.115 Y11.575 E10.72677
G1 X-3.495 Y11.552 E10.74577
G1 X-3.914 Y11.417 E10.76773
G1 X-4.409 Y11.154 E10.79569
G1 X-4.693 Y10.837 E10.81693
G1 X-4.97 Y10.955 E10.83195
G1 X-5.103 Y10.882 E10.83952
G1 X-5.178 Y10.931 E10.84399
G1 X-5.476 Y10.633 E10.86501
G1 X-5.688 Y10.634 E10.87559
G1 X-5.814 Y10.457 E10.88643
G1 X-6.181 Y10.259 E10.90723
G1 X-6.163 Y10.121 E10.91418
G1 X-6.346 Y9.998 E10.92518
G1 X-6.371 Y9.914 E10.92955
G1 X-6.507 Y9.904 E10.93635
G1 X-6.686 Y9.749 E10.94817
G1 X-7.062 Y9.195 E10.98157
G1 X-7.134 Y9.118 E10.98683
G1 X-7.185 Y8.812 E11.00231
G1 X-7.23 Y8.54 E11.01606
G1 X-6.958 Y8.581 E11.02423
G1 X-6.957 Y8.582 E11.0243
