;FLAVOR:Marlin
;TIME:460
;Filament used: 0.449731m
;Layer height: 0.3
;MINX:-12.032
;MINY:-9.341
;MINZ:0.3
;MAXX:12.032
;MAXY:9.482
;MAXZ:25.2
;Generated with Cura_SteamEngine master
M140 S60
M105
M190 S60
M104 S200
M105
M109 S200
M82 ;absolute extrusion mode
G28 ;Home
G1 Z15.0 F6000 ;Move the platform down 15mm
;Prime the extruder
G92 E0
G1 F200 E3
G92 E0
G92 E0
G92 E0
G1 F1500 E-6.5
;LAYER_COUNT:84
;LAYER:0
M107 P1
;MESH:20140205_Marvin_KeyChain.STL
G0 F3600 X-4.203 Y-5.837 Z0.3
;TYPE:WALL-OUTER
G1 F1500 E0
G1 F1800 X-3.67 Y-5.609 E0.02892
G1 X-3.132 Y-5.231 E0.06173
G1 X-2.7 Y-4.786 E0.09267
G1 X-2.236 Y-4.11 E0.13357
G1 X-2.026 Y-3.689 E0.15705
G1 X-1.774 Y-3.036 E0.19197
G1 X-1.581 Y-2.355 E0.22728
G1 X-1.479 Y-1.852 E0.25288
G1 X-1.406 Y-1.312 E0.28007
G1 X-1.365 Y-.76 E0.30769
G1 X-1.356 Y-.194 E0.33593
G1 X-1.376 Y0.326 E0.36189
G1 X-1.442 Y0.945 E0.39295
G1 X-1.592 Y1.771 E0.43483
G1 X-1.787 Y2.458 E0.47046
G1 X-2.075 Y3.162 E0.50841
G1 X-2.323 Y3.626 E0.53465
G1 X-2.71 Y4.17 E0.56796
G1 X-3.152 Y4.616 E0.59929
G1 X-3.631 Y4.954 E0.62854
G1 X-4.015 Y5.139 E0.6498
G1 X-4.551 Y5.291 E0.6776
G1 X-4.997 Y5.329 E0.69993
G1 X-5.539 Y5.271 E0.72712
G1 X-6.158 Y5.065 E0.75967
G1 X-6.661 Y4.763 E0.78894
G1 X-7.1 Y4.375 E0.81817
G1 X-7.541 Y3.835 E0.85295
G1 X-7.942 Y3.129 E0.89346
G1 X-8.199 Y2.487 E0.92796
G1 X-8.401 Y1.789 E0.96422
G1 X-8.531 Y1.155 E0.9965
G1 X-8.598 Y0.638 E1.02251
G1 X-8.636 Y0.1 E1.04942
G1 X-8.646 Y-.417 E1.07522
G1 X-8.602 Y-1.206 E1.11464
G1 X-8.472 Y-2.113 E1.16036
G1 X-8.249 Y-2.977 E1.20487
G1 X-7.99 Y-3.661 E1.24136
G1 X-7.65 Y-4.302 E1.27756
G1 X-7.351 Y-4.723 E1.30332
G1 X-6.842 Y-5.255 E1.34006
G1 X-6.423 Y-5.556 E1.3658
G1 X-5.92 Y-5.796 E1.3936
G1 X-5.277 Y-5.946 E1.42654
G1 X-4.729 Y-5.946 E1.45388
G1 X-4.203 Y-5.837 E1.48068
G0 F3600 X-4.019 Y-5.759
G0 X-4.322 Y-5.463
;TYPE:SKIN
G1 F1800 X-3.857 Y-5.264 E1.50592
G1 X-3.386 Y-4.932 E1.53467
G1 X-3.006 Y-4.542 E1.56183
G1 X-2.571 Y-3.908 E1.60019
G1 X-2.383 Y-3.532 E1.62116
G1 X-2.144 Y-2.912 E1.65431
G1 X-1.96 Y-2.263 E1.68797
G1 X-1.861 Y-1.774 E1.71286
G1 X-1.793 Y-1.271 E1.73818
G1 X-1.755 Y-.754 E1.76405
G1 X-1.746 Y-.209 E1.79124
G1 X-1.765 Y0.292 E1.81625
G1 X-1.827 Y0.882 E1.84585
G1 X-1.972 Y1.682 E1.88641
G1 X-2.155 Y2.329 E1.91996
G1 X-2.429 Y2.996 E1.95593
G1 X-2.655 Y3.42 E1.9799
G1 X-3.008 Y3.916 E2.01028
G1 X-3.408 Y4.32 E2.03864
G1 X-3.829 Y4.617 E2.06434
G1 X-4.151 Y4.773 E2.0822
G1 X-4.624 Y4.907 E2.10672
G1 X-4.989 Y4.937 E2.12499
G1 X-5.457 Y4.887 E2.14848
G1 X-5.994 Y4.708 E2.17672
G1 X-6.431 Y4.447 E2.20211
G1 X-6.816 Y4.106 E2.22777
G1 X-7.218 Y3.613 E2.2595
G1 X-7.59 Y2.959 E2.29704
G1 X-7.828 Y2.365 E2.32897
G1 X-8.025 Y1.682 E2.36443
G1 X-8.149 Y1.077 E2.39524
G1 X-8.208 Y0.611 E2.41868
G1 X-8.246 Y0.073 E2.44558
G1 X-8.256 Y-.395 E2.46894
G1 X-8.212 Y-1.184 E2.50836
G1 X-8.089 Y-2.033 E2.55116
G1 X-7.876 Y-2.859 E2.59372
G1 X-7.634 Y-3.498 E2.62781
G1 X-7.316 Y-4.099 E2.66173
G1 X-7.048 Y-4.477 E2.68485
G1 X-6.588 Y-4.957 E2.71802
G1 X-6.221 Y-5.22 E2.74054
G1 X-5.79 Y-5.425 E2.76435
G1 X-5.231 Y-5.556 E2.793
G1 X-4.771 Y-5.556 E2.81595
G1 X-4.322 Y-5.463 E2.83882
G0 F3600 X-3.995 Y-5.127
G1 F1800 X-2.817 Y-3.949 E2.92194
G1 X-2.747 Y-3.879
G0 F3600 X-2.332 Y-2.897
G1 F1800 X-4.809 Y-5.375 E3.09674
G0 F3600 X-5.343 Y-5.343
G1 F1800 X-2.113 Y-2.113 E3.32463
G0 F3600 X-1.994 Y-1.429
G1 F1800 X-5.789 Y-5.224 E3.59239
G0 F3600 X-6.166 Y-5.035
G1 F1800 X-1.937 Y-.806 E3.89077
G0 F3600 X-1.925 Y-.228
G1 F1800 X-6.493 Y-4.796 E4.21307
G0 F3600 X-6.77 Y-4.507
G1 F1800 X-1.948 Y0.314 E4.55325
G0 F3600 X-2 Y0.828
G1 F1800 X-7.025 Y-4.197 E4.90779
G0 F3600 X-7.243 Y-3.849
G1 F1800 X-2.085 Y1.308 E5.27168
G0 F3600 X-2.183 Y1.776
G1 F1800 X-7.439 Y-3.479 E5.64248
G0 F3600 X-7.6 Y-3.075
G1 F1800 X-2.307 Y2.217 E6.0159
G0 F3600 X-2.469 Y2.621
G1 F1800 X-7.742 Y-2.651 E6.3879
G0 F3600 X-7.859 Y-2.202
G1 F1800 X-2.641 Y3.015 E6.75602
G0 F3600 X-2.845 Y3.377
G1 F1800 X-7.951 Y-1.728 E7.11625
G0 F3600 X-8.022 Y-1.233
G1 F1800 X-3.08 Y3.708 E7.46489
G0 F3600 X-3.348 Y4.005
G1 F1800 X-8.058 Y-.704 E7.79718
G0 F3600 X-8.07 Y-.151
G1 F1800 X-3.65 Y4.269 E8.10903
G0 F3600 X-3.99 Y4.494
G1 F1800 X-8.037 Y0.447 E8.39457
G0 F3600 X-7.962 Y1.088
G1 F1800 X-4.396 Y4.654 E8.64617
G0 F3600 X-4.87 Y4.746
G1 F1800 X-7.797 Y1.818 E8.85272
G1 X-7.867 Y1.748
G0 F3600 X-7.51 Y2.672
G1 F1800 X-5.5 Y4.681 E8.9945
G1 X-5.43 Y4.751
G1 F1500 E2.4945
G0 F3600 X-1.425 Y-1.31
G0 X-.55 Y-1.428
G0 X0.729 Y-2.514
G0 X1.596 Y-2.345
G0 X5.478 Y-5.814
G0 X5.495 Y-5.912
;TYPE:WALL-OUTER
G1 F1500 E8.9945
G1 F1800 X5.92 Y-5.798 E9.01645
G1 X6.416 Y-5.559 E9.04392
G1 X6.847 Y-5.25 E9.07038
G1 X7.275 Y-4.82 E9.10065
G1 X7.645 Y-4.311 E9.13204
G1 X7.96 Y-3.722 E9.16537
G1 X8.207 Y-3.097 E9.19889
G1 X8.372 Y-2.556 E9.22711
G1 X8.547 Y-1.679 E9.27173
G1 X8.636 Y-.741 E9.31874
G1 X8.646 Y-.423 E9.33461
G1 X8.636 Y0.118 E9.3616
G1 X8.599 Y0.638 E9.38761
G1 X8.529 Y1.167 E9.41423
G1 X8.436 Y1.654 E9.43897
G1 X8.309 Y2.151 E9.46456
G1 X8.113 Y2.732 E9.49515
G1 X7.755 Y3.491 E9.53702
G1 X7.396 Y4.035 E9.56954
G1 X6.938 Y4.538 E9.60348
G1 X6.417 Y4.926 E9.63589
G1 X5.917 Y5.165 E9.66353
G1 X5.547 Y5.271 E9.68274
G1 X4.996 Y5.328 E9.71037
G1 X4.546 Y5.29 E9.7329
G1 X4.094 Y5.166 E9.75629
G1 X3.629 Y4.953 E9.7818
G1 X3.187 Y4.644 E9.80871
G1 X2.71 Y4.169 E9.84229
G1 X2.325 Y3.628 E9.87542
G1 X2.073 Y3.158 E9.90203
G1 X1.823 Y2.555 E9.93459
G1 X1.671 Y2.078 E9.95957
G1 X1.494 Y1.302 E9.99928
G1 X1.419 Y0.795 E10.02485
G1 X1.375 Y0.317 E10.0488
G1 X1.355 Y-.183 E10.07376
G1 X1.361 Y-.689 E10.09901
G1 X1.407 Y-1.323 E10.13072
G1 X1.478 Y-1.84 E10.15676
G1 X1.577 Y-2.349 E10.18263
G1 X1.767 Y-3.013 E10.21708
G1 X2.015 Y-3.661 E10.2517
G1 X2.234 Y-4.105 E10.2764
G1 X2.653 Y-4.731 E10.31398
G1 X2.981 Y-5.089 E10.33821
G1 X3.383 Y-5.428 E10.36444
G1 X3.889 Y-5.716 E10.39349
G1 X4.454 Y-5.903 E10.42318
G1 X4.998 Y-5.96 E10.45047
G1 X5.495 Y-5.912 E10.47538
G0 F3600 X5.688 Y-5.861
G0 X5.428 Y-5.527
;TYPE:SKIN
G1 F1800 X5.78 Y-5.433 E10.49356
G1 X6.214 Y-5.223 E10.51761
G1 X6.594 Y-4.951 E10.54092
G1 X6.975 Y-4.568 E10.56788
G1 X7.317 Y-4.099 E10.59683
G1 X7.604 Y-3.561 E10.62726
G1 X7.841 Y-2.961 E10.65944
G1 X7.996 Y-2.453 E10.68594
G1 X8.161 Y-1.625 E10.72806
G1 X8.246 Y-.729 E10.77296
G1 X8.256 Y-.431 E10.78784
G1 X8.246 Y0.101 E10.81438
G1 X8.146 Y1.093 E10.86413
G1 X7.939 Y2.026 E10.91181
G1 X7.749 Y2.589 E10.94145
G1 X7.415 Y3.297 E10.98051
G1 X7.085 Y3.797 E11.01039
G1 X6.671 Y4.252 E11.04108
G1 X6.217 Y4.59 E11.06932
G1 X5.784 Y4.797 E11.09327
G1 X5.472 Y4.887 E11.10947
G1 X4.989 Y4.936 E11.13369
G1 X4.617 Y4.905 E11.15231
G1 X4.23 Y4.799 E11.17233
G1 X3.825 Y4.614 E11.19454
G1 X3.437 Y4.342 E11.21818
G1 X3.008 Y3.915 E11.24838
G1 X2.655 Y3.419 E11.27875
G1 X2.432 Y3.002 E11.30235
G1 X2.188 Y2.414 E11.33411
G1 X2.043 Y1.959 E11.35793
G1 X1.879 Y1.238 E11.39482
G1 X1.805 Y0.738 E11.42004
G1 X1.745 Y-.179 E11.46589
G1 X1.751 Y-.673 E11.49053
G1 X1.795 Y-1.282 E11.521
G1 X1.861 Y-1.766 E11.54537
G1 X1.957 Y-2.26 E11.57047
G1 X2.137 Y-2.89 E11.60316
G1 X2.376 Y-3.514 E11.6365
G1 X2.568 Y-3.903 E11.65814
G1 X2.963 Y-4.493 E11.69356
G1 X3.25 Y-4.806 E11.71475
G1 X3.605 Y-5.105 E11.73791
G1 X4.049 Y-5.358 E11.7634
G1 X4.536 Y-5.519 E11.78899
G1 X5.002 Y-5.568 E11.81237
G1 X5.428 Y-5.527 E11.83372
G0 F3600 X7.555 Y-3.192
G1 F1800 X5.398 Y-5.349 E11.98591
G0 F3600 X4.816 Y-5.366
G1 F1800 X7.833 Y-2.349 E12.19877
G0 F3600 X7.974 Y-1.641
G1 F1800 X4.35 Y-5.266 E12.4545
G0 F3600 X3.955 Y-5.095
G1 F1800 X8.038 Y-1.012 E12.74258
G0 F3600 X8.075 Y-.409
G1 F1800 X3.612 Y-4.872 E13.05747
G0 F3600 X3.312 Y-4.607
G1 F1800 X8.06 Y0.14 E13.39243
G0 F3600 X8.008 Y0.654
G1 F1800 X3.051 Y-4.302 E13.74214
G0 F3600 X2.824 Y-3.963
G1 F1800 X7.947 Y1.158 E14.10352
G0 F3600 X7.844 Y1.622
G1 F1800 X2.62 Y-3.602 E14.4721
G0 F3600 X2.451 Y-3.205
G1 F1800 X7.732 Y2.076 E14.84471
G0 F3600 X7.59 Y2.499
G1 F1800 X2.296 Y-2.794 E15.21819
G0 F3600 X2.17 Y-2.354
G1 F1800 X7.41 Y2.884 E15.58783
G0 F3600 X7.221 Y3.261
G1 F1800 X2.067 Y-1.892 E15.95144
G0 F3600 X1.991 Y-1.402
G1 F1800 X6.997 Y3.603 E16.3046
G0 F3600 X6.738 Y3.909
G1 F1800 X1.945 Y-.883 E16.64274
G0 F3600 X1.926 Y-.336
G1 F1800 X6.452 Y4.189 E16.96204
G0 F3600 X6.127 Y4.43
G1 F1800 X1.953 Y0.256 E17.25654
G0 F3600 X2.006 Y0.874
G1 F1800 X5.745 Y4.614 E17.52038
G0 F3600 X5.289 Y4.724
G1 F1800 X2.138 Y1.572 E17.74273
G1 X2.068 Y1.502
G0 F3600 X2.36 Y2.36
G1 F1800 X4.733 Y4.733 E17.91016
G1 X4.803 Y4.803
G0 F3600 X3.83 Y4.396
G1 F1800 X2.931 Y3.497 E17.97359
G1 X2.861 Y3.427
G1 F1500 E11.47359
;MESH:NONMESH
G0 F600 X2.861 Y3.427 Z0.6
G0 F3600 X1.426 Y-1.321
G0 X0.55 Y-1.441
G0 X-.733 Y-2.526
G0 X-1.6 Y-2.351
G0 X-4.228 Y-5.739
G0 X-4.216 Y-5.794
;TIME_ELAPSED:16.582871
;LAYER:1
M106 S255 P1
;TYPE:WALL-OUTER
;MESH:20140205_Marvin_KeyChain.STL
G1 F1500 E17.97359
G1 F1800 X-3.69 Y-5.569 E18.00213
G1 X-3.295 Y-5.302 E18.02592
G1 X-2.939 Y-4.988 E18.0496
G1 X-2.478 Y-4.414 E18.08633
G1 X-2.19 Y-3.92 E18.11486
G1 X-1.924 Y-3.335 E18.14692
G1 X-1.736 Y-2.775 E18.17639
G1 X-1.61 Y-2.28 E18.20188
G1 X-1.487 Y-1.573 E18.23768
G1 X-1.413 Y-.819 E18.27548
G1 X-1.401 Y-.212 E18.30576
G1 X-1.422 Y0.344 E18.33352
G1 X-1.483 Y0.918 E18.36232
G1 X-1.624 Y1.705 E18.40221
G1 X-1.825 Y2.427 E18.4396
G1 X-1.993 Y2.875 E18.46347
G1 X-2.277 Y3.452 E18.49556
G1 X-2.543 Y3.88 E18.5207
G1 X-2.863 Y4.269 E18.54583
G1 X-3.214 Y4.609 E18.57021
G1 X-3.647 Y4.912 E18.59657
G1 X-4.02 Y5.093 E18.61726
G1 X-4.565 Y5.247 E18.64551
G1 X-4.999 Y5.284 E18.66724
G1 X-5.523 Y5.229 E18.69353
G1 X-5.908 Y5.121 E18.71348
G1 X-6.383 Y4.894 E18.73974
G1 X-6.777 Y4.613 E18.76389
G1 X-7.139 Y4.273 E18.78866
G1 X-7.502 Y3.814 E18.81786
G1 X-7.898 Y3.117 E18.85785
G1 X-8.155 Y2.475 E18.89235
G1 X-8.356 Y1.787 E18.92811
G1 X-8.488 Y1.138 E18.96116
G1 X-8.554 Y0.623 E18.98706
G1 X-8.591 Y0.086 E19.01391
G1 X-8.6 Y-.427 E19.03951
G1 X-8.56 Y-1.186 E19.07743
G1 X-8.501 Y-1.688 E19.10265
G1 X-8.381 Y-2.314 E19.13445
G1 X-8.209 Y-2.958 E19.1677
G1 X-7.946 Y-3.647 E19.2045
G1 X-7.617 Y-4.27 E19.23965
G1 X-7.316 Y-4.696 E19.26567
G1 X-6.815 Y-5.218 E19.30177
G1 X-6.406 Y-5.514 E19.32695
G1 X-5.9 Y-5.755 E19.35492
G1 X-5.277 Y-5.9 E19.38683
G1 X-4.735 Y-5.902 E19.41387
G1 X-4.216 Y-5.794 E19.44032
G0 F5400 X-4.033 Y-5.716
G0 X-4.335 Y-5.42
;TYPE:SKIN
G1 F1800 X-3.873 Y-5.222 E19.46539
G1 X-3.534 Y-4.993 E19.4858
G1 X-3.222 Y-4.718 E19.50655
G1 X-2.803 Y-4.196 E19.53995
G1 X-2.537 Y-3.739 E19.56633
G1 X-2.287 Y-3.192 E19.59633
G1 X-2.11 Y-2.664 E19.62412
G1 X-1.99 Y-2.191 E19.64846
G1 X-1.875 Y-1.534 E19.68174
G1 X-1.803 Y-.804 E19.71833
G1 X-1.791 Y-.227 E19.74713
G1 X-1.812 Y0.317 E19.77429
G1 X-1.869 Y0.863 E19.80168
G1 X-2.005 Y1.616 E19.83985
G1 X-2.198 Y2.312 E19.87588
G1 X-2.354 Y2.728 E19.89805
G1 X-2.613 Y3.255 E19.92735
G1 X-2.86 Y3.652 E19.95067
G1 X-3.148 Y4.002 E19.97329
G1 X-3.462 Y4.305 E19.99506
G1 X-3.849 Y4.576 E20.01863
G1 X-4.162 Y4.729 E20.03601
G1 X-4.636 Y4.862 E20.06057
G1 X-4.991 Y4.892 E20.07834
G1 X-5.448 Y4.845 E20.10126
G1 X-5.777 Y4.752 E20.11832
G1 X-6.179 Y4.56 E20.14055
G1 X-6.531 Y4.31 E20.16209
G1 X-6.85 Y4.009 E20.18397
G1 X-7.178 Y3.596 E20.21028
G1 X-7.546 Y2.947 E20.2475
G1 X-7.787 Y2.344 E20.2799
G1 X-7.977 Y1.697 E20.31354
G1 X-8.106 Y1.06 E20.34597
G1 X-8.162 Y0.623 E20.36795
G1 X-8.201 Y0.059 E20.39615
G1 X-8.21 Y-.406 E20.41936
G1 X-8.172 Y-1.141 E20.45607
G1 X-8.115 Y-1.629 E20.48059
G1 X-8.001 Y-2.226 E20.51091
G1 X-7.835 Y-2.846 E20.54293
G1 X-7.591 Y-3.483 E20.57696
G1 X-7.282 Y-4.069 E20.61001
G1 X-7.016 Y-4.447 E20.63307
G1 X-6.56 Y-4.92 E20.66585
G1 X-6.207 Y-5.177 E20.68764
G1 X-5.768 Y-5.385 E20.71187
G1 X-5.231 Y-5.51 E20.73938
G1 X-4.775 Y-5.512 E20.76213
G1 X-4.335 Y-5.42 E20.78455
G0 F5400 X-5.481 Y-5.266
G1 F1800 X-7.477 Y-3.27 E20.92538
G1 X-7.547 Y-3.2
G0 F5400 X-7.761 Y-2.42
G1 F1800 X-4.85 Y-5.331 E21.13077
G0 F5400 X-4.376 Y-5.24
G1 F1800 X-7.918 Y-1.698 E21.38068
G0 F5400 X-7.994 Y-1.056
G1 F1800 X-3.979 Y-5.071 E21.66396
G0 F5400 X-3.639 Y-4.845
G1 F1800 X-8.026 Y-.458 E21.97348
G0 F5400 X-8.016 Y0.096
G1 F1800 X-3.34 Y-4.579 E22.30337
G0 F5400 X-3.089 Y-4.264
G1 F1800 X-7.98 Y0.626 E22.64842
G0 F5400 X-7.908 Y1.12
G1 F1800 X-2.858 Y-3.93 E23.00472
G0 F5400 X-2.657 Y-3.565
G1 F1800 X-7.813 Y1.59 E23.36847
G0 F5400 X-7.689 Y2.032
G1 F1800 X-2.479 Y-3.177 E23.73603
G0 F5400 X-2.332 Y-2.758
G1 F1800 X-7.547 Y2.456 E24.10394
G0 F5400 X-7.385 Y2.86
G1 F1800 X-2.207 Y-2.317 E24.46924
G0 F5400 X-2.111 Y-1.848
G1 F1800 X-7.181 Y3.221 E24.82692
G0 F5400 X-6.965 Y3.571
G1 F1800 X-2.037 Y-1.356 E25.17458
G0 F5400 X-1.986 Y-.841
G1 F1800 X-6.715 Y3.886 E25.50817
G0 F5400 X-6.426 Y4.163
G1 F1800 X-1.971 Y-.291 E25.82246
G0 F5400 X-1.989 Y0.292
G1 F1800 X-6.095 Y4.398 E26.11216
G0 F5400 X-5.714 Y4.583
G1 F1800 X-2.064 Y0.932 E26.36972
G0 F5400 X-2.195 Y1.629
G1 F1800 X-5.25 Y4.684 E26.58527
G0 F5400 X-4.685 Y4.685
G1 F1800 X-2.436 Y2.436 E26.74395
G1 X-2.366 Y2.366
G0 F5400 X-3.121 Y3.686
G1 F1800 X-3.648 Y4.214 E26.78116
G1 F1500 E20.28116
G0 F5400 X-1.441 Y0.343
G0 X-.557 Y0.375
G0 X0.587 Y-1.337
G0 X1.468 Y-1.271
G0 X5.465 Y-5.77
G0 X5.483 Y-5.868
;TYPE:WALL-OUTER
G1 F1500 E26.78116
G1 F1800 X5.913 Y-5.752 E26.80338
G1 X6.397 Y-5.519 E26.83018
G1 X6.814 Y-5.219 E26.85581
G1 X7.231 Y-4.801 E26.88527
G1 X7.603 Y-4.291 E26.91676
G1 X7.913 Y-3.715 E26.9494
G1 X8.163 Y-3.086 E26.98317
G1 X8.328 Y-2.544 E27.01143
G1 X8.5 Y-1.687 E27.05504
G1 X8.56 Y-1.198 E27.07962
G1 X8.593 Y-.645 E27.10726
G1 X8.601 Y-.411 E27.11894
G1 X8.591 Y0.114 E27.14514
G1 X8.552 Y0.648 E27.17185
G1 X8.487 Y1.141 E27.19666
G1 X8.39 Y1.654 E27.2227
G1 X8.258 Y2.166 E27.24908
G1 X8.077 Y2.701 E27.27726
G1 X7.72 Y3.461 E27.31915
G1 X7.364 Y4.003 E27.3515
G1 X6.904 Y4.508 E27.38558
G1 X6.396 Y4.886 E27.41717
G1 X5.902 Y5.123 E27.44451
G1 X5.528 Y5.229 E27.4639
G1 X5.004 Y5.283 E27.49018
G1 X4.419 Y5.213 E27.51958
G1 X3.894 Y5.039 E27.54717
G1 X3.4 Y4.753 E27.57565
G1 X2.963 Y4.38 E27.60431
G1 X2.59 Y3.939 E27.63313
G1 X2.313 Y3.521 E27.65815
G1 X2.094 Y3.099 E27.68187
G1 X1.866 Y2.541 E27.71194
G1 X1.699 Y2.016 E27.73943
G1 X1.54 Y1.301 E27.77597
G1 X1.466 Y0.797 E27.80138
G1 X1.419 Y0.29 E27.82679
G1 X1.4 Y-.201 E27.8513
G1 X1.406 Y-.703 E27.87635
G1 X1.449 Y-1.273 E27.90486
G1 X1.521 Y-1.834 E27.93308
G1 X1.622 Y-2.341 E27.95887
G1 X1.798 Y-2.96 E27.99098
G1 X2.037 Y-3.599 E28.02502
G1 X2.266 Y-4.07 E28.05115
G1 X2.67 Y-4.678 E28.08756
G1 X3.009 Y-5.054 E28.11282
G1 X3.411 Y-5.393 E28.13906
G1 X3.895 Y-5.669 E28.16685
G1 X4.455 Y-5.857 E28.19632
G1 X4.991 Y-5.914 E28.22322
G1 X5.483 Y-5.868 E28.24787
G0 F5400 X5.676 Y-5.816
G0 X5.415 Y-5.484
;TYPE:SKIN
G1 F1800 X5.774 Y-5.386 E28.26644
G1 X6.199 Y-5.181 E28.28998
G1 X6.558 Y-4.923 E28.31203
G1 X6.931 Y-4.549 E28.33839
G1 X7.277 Y-4.075 E28.36766
G1 X7.556 Y-3.556 E28.39706
G1 X7.8 Y-2.942 E28.43002
G1 X7.952 Y-2.442 E28.4561
G1 X8.112 Y-1.64 E28.4969
G1 X8.17 Y-1.175 E28.52027
G1 X8.203 Y-.631 E28.54746
G1 X8.211 Y-.419 E28.55805
G1 X8.201 Y0.096 E28.58375
G1 X8.165 Y0.608 E28.60935
G1 X8.103 Y1.069 E28.63256
G1 X8.007 Y1.576 E28.6583
G1 X7.884 Y2.055 E28.68298
G1 X7.717 Y2.551 E28.70909
G1 X7.378 Y3.271 E28.74879
G1 X7.055 Y3.763 E28.77815
G1 X6.639 Y4.22 E28.80899
G1 X6.195 Y4.551 E28.83661
G1 X5.766 Y4.756 E28.86034
G1 X5.454 Y4.845 E28.87652
G1 X5.011 Y4.891 E28.89874
G1 X4.5 Y4.829 E28.92442
G1 X4.052 Y4.681 E28.94796
G1 X3.626 Y4.434 E28.97253
G1 X3.244 Y4.108 E28.99758
G1 X2.9 Y3.701 E29.02417
G1 X2.441 Y2.919 E29.06941
G1 X2.235 Y2.413 E29.09667
G1 X2.071 Y1.897 E29.12368
G1 X1.926 Y1.243 E29.1571
G1 X1.852 Y0.74 E29.18246
G1 X1.79 Y-.197 E29.22931
G1 X1.796 Y-.699 E29.25436
G1 X1.835 Y-1.224 E29.28062
G1 X1.903 Y-1.758 E29.30748
G1 X2 Y-2.244 E29.3322
G1 X2.169 Y-2.839 E29.36306
G1 X2.395 Y-3.444 E29.39528
G1 X2.605 Y-3.874 E29.41916
G1 X2.979 Y-4.438 E29.45292
G1 X3.284 Y-4.776 E29.47563
G1 X3.633 Y-5.071 E29.49843
G1 X4.055 Y-5.311 E29.52265
G1 X4.539 Y-5.474 E29.54813
G1 X4.996 Y-5.522 E29.57106
G1 X5.415 Y-5.484 E29.59205
G0 F5400 X3.86 Y-4.991
G1 F1800 X2.979 Y-4.111 E29.65417
G1 X2.909 Y-4.041
