;FLAVOR:Marlin
;TIME:694
;Filament used: 0.705083m
;Layer height: 0.3
;MINX:-12.745
;MINY:-8.164
;MINZ:0.3
;MAXX:12.746
;MAXY:8.146
;MAXZ:33.6
;Generated with Cura_SteamEngine master
M140 S60
M105
M190 S60
M104 S200
M105
M109 S200
M82 ;absolute extrusion mode
G28 ;Home
G1 Z15.0 F6000 ;Move the platform down 15mm
;Prime the extruder
G92 E0
G1 F200 E3
G92 E0
G92 E0
G92 E0
G1 F1500 E-6.5
;LAYER_COUNT:112
;LAYER:0
M107 P1
;MESH:UltimakerRobot_support.stl
G0 F3600 X0.055 Y6.458 Z0.3
;TYPE:WALL-OUTER
G1 F1500 E0
G1 F1800 X-.502 Y6.533 E0.02804
G1 X-7.085 Y6.533 E0.35647
G1 X-7.481 Y6.467 E0.3765
G1 X-7.806 Y6.308 E0.39455
G1 X-8.083 Y6.037 E0.41388
G1 X-8.255 Y5.722 E0.43179
G1 X-8.333 Y5.3 E0.4532
G1 X-8.333 Y-5.285 E0.98128
G1 X-8.267 Y-5.681 E1.00131
G1 X-8.108 Y-6.006 E1.01936
G1 X-7.837 Y-6.283 E1.0387
G1 X-7.522 Y-6.455 E1.0566
G1 X-7.094 Y-6.533 E1.07831
G1 X-.514 Y-6.533 E1.40658
G1 X-0.055 Y-6.458 E1.42979
G1 X0.502 Y-6.533 E1.45783
G1 X7.085 Y-6.533 E1.78625
G1 X7.481 Y-6.467 E1.80628
G1 X7.806 Y-6.308 E1.82433
G1 X8.083 Y-6.037 E1.84367
G1 X8.255 Y-5.722 E1.86157
G1 X8.333 Y-5.3 E1.88298
G1 X8.333 Y5.283 E2.41097
G1 X8.267 Y5.681 E2.4311
G1 X8.108 Y6.006 E2.44915
G1 X7.837 Y6.283 E2.46848
G1 X7.522 Y6.455 E2.48639
G1 X7.095 Y6.533 E2.50804
G1 X0.514 Y6.533 E2.83637
G1 X0.055 Y6.458 E2.85958
G0 F3600 X-.143 Y6.484
G0 X0.061 Y6.064
;TYPE:SKIN
G1 F1800 X-.524 Y6.143 E2.88903
G1 X-7.057 Y6.143 E3.21496
G1 X-7.357 Y6.093 E3.23013
G1 X-7.579 Y5.985 E3.24245
G1 X-7.768 Y5.8 E3.25564
G1 X-7.882 Y5.589 E3.26761
G1 X-7.943 Y5.261 E3.28425
G1 X-7.943 Y-5.257 E3.809
G1 X-7.893 Y-5.557 E3.82417
G1 X-7.785 Y-5.779 E3.83649
G1 X-7.6 Y-5.968 E3.84968
G1 X-7.389 Y-6.083 E3.86167
G1 X-7.057 Y-6.143 E3.8785
G1 X-.547 Y-6.143 E4.20329
G1 X-0.061 Y-6.064 E4.22785
G1 X0.524 Y-6.143 E4.2573
G1 X7.057 Y-6.143 E4.58324
G1 X7.357 Y-6.093 E4.59841
G1 X7.579 Y-5.985 E4.61073
G1 X7.768 Y-5.8 E4.62392
G1 X7.882 Y-5.589 E4.63589
G1 X7.943 Y-5.261 E4.65253
G1 X7.943 Y5.255 E5.17718
G1 X7.893 Y5.557 E5.19245
G1 X7.785 Y5.779 E5.20477
G1 X7.6 Y5.968 E5.21796
G1 X7.389 Y6.083 E5.22995
G1 X7.057 Y6.143 E5.24678
G1 X0.547 Y6.143 E5.57157
G1 X0.061 Y6.064 E5.59613
G0 F3600 X-7.76 Y5.25
G1 F1800 X-7.049 Y5.961 E5.6463
G0 F3600 X-6.482 Y5.962
G1 F1800 X-7.762 Y4.682 E5.73661
G0 F3600 X-7.762 Y4.116
G1 F1800 X-5.917 Y5.962 E5.86682
G0 F3600 X-5.351 Y5.962
G1 F1800 X-7.762 Y3.551 E6.03693
G0 F3600 X-7.762 Y2.985
G1 F1800 X-4.785 Y5.962 E6.24697
G0 F3600 X-4.22 Y5.962
G1 F1800 X-7.762 Y2.419 E6.49691
G0 F3600 X-7.762 Y1.854
G1 F1800 X-3.654 Y5.962 E6.78675
G0 F3600 X-3.088 Y5.962
G1 F1800 X-7.762 Y1.288 E7.11653
G0 F3600 X-7.762 Y0.722
G1 F1800 X-2.522 Y5.962 E7.48624
G0 F3600 X-1.957 Y5.962
G1 F1800 X-7.762 Y0.156 E7.89585
G0 F3600 X-7.762 Y-.408
G1 F1800 X-1.391 Y5.962 E8.34532
G0 F3600 X-.825 Y5.962
G1 F1800 X-7.762 Y-.974 E8.83473
G0 F3600 X-7.762 Y-1.54
G1 F1800 X-.293 Y5.929 E9.36171
G0 F3600 X0.255 Y5.912
G1 F1800 X-7.762 Y-2.105 E9.92735
G0 F3600 X-7.762 Y-2.671
G1 F1800 X0.871 Y5.962 E10.53646
G0 F3600 X1.436 Y5.962
G1 F1800 X-7.762 Y-3.237 E11.18546
G0 F3600 X-7.762 Y-3.802
G1 F1800 X2.002 Y5.962 E11.87436
G0 F3600 X2.568 Y5.962
G1 F1800 X-7.762 Y-4.368 E12.6032
G0 F3600 X-7.762 Y-4.934
G1 F1800 X3.133 Y5.962 E13.37194
G0 F3600 X3.699 Y5.962
G1 F1800 X-7.725 Y-5.463 E14.178
G0 F3600 X-7.504 Y-5.807
G1 F1800 X4.265 Y5.962 E15.00836
G0 F3600 X4.83 Y5.962
G1 F1800 X-7.085 Y-5.954 E15.84907
G0 F3600 X-6.528 Y-5.962
G1 F1800 X5.396 Y5.962 E16.69037
G0 F3600 X5.962 Y5.962
G1 F1800 X-5.962 Y-5.962 E17.53167
G0 F3600 X-5.396 Y-5.962
G1 F1800 X6.528 Y5.962 E18.37297
G0 F3600 X7.085 Y5.954
G1 F1800 X-4.83 Y-5.962 E19.21368
G0 F3600 X-4.265 Y-5.962
G1 F1800 X7.504 Y5.807 E20.04404
G0 F3600 X7.725 Y5.462
G1 F1800 X-3.699 Y-5.962 E20.85007
G0 F3600 X-3.133 Y-5.962
G1 F1800 X7.761 Y4.933 E21.61873
G0 F3600 X7.761 Y4.367
G1 F1800 X-2.568 Y-5.962 E22.3475
G0 F3600 X-2.002 Y-5.962
G1 F1800 X7.761 Y3.802 E23.03637
G0 F3600 X7.761 Y3.236
G1 F1800 X-1.436 Y-5.962 E23.6853
G0 F3600 X-.871 Y-5.962
G1 F1800 X7.761 Y2.67 E24.29434
G0 F3600 X7.761 Y2.105
G1 F1800 X-.255 Y-5.912 E24.85994
G0 F3600 X0.293 Y-5.929
G1 F1800 X7.761 Y1.539 E25.38685
G0 F3600 X7.761 Y0.973
G1 F1800 X0.825 Y-5.962 E25.87619
G0 F3600 X1.391 Y-5.962
G1 F1800 X7.761 Y0.408 E26.32563
G0 F3600 X7.761 Y-.157
G1 F1800 X1.957 Y-5.962 E26.73516
G0 F3600 X2.522 Y-5.962
G1 F1800 X7.761 Y-.723 E27.1048
G0 F3600 X7.761 Y-1.289
G1 F1800 X3.088 Y-5.962 E27.43451
G0 F3600 X3.654 Y-5.962
G1 F1800 X7.761 Y-1.854 E27.72432
G0 F3600 X7.761 Y-2.42
G1 F1800 X4.22 Y-5.962 E27.97419
G0 F3600 X4.785 Y-5.962
G1 F1800 X7.761 Y-2.986 E28.18416
G0 F3600 X7.761 Y-3.551
G1 F1800 X5.351 Y-5.962 E28.35423
G0 F3600 X5.917 Y-5.962
G1 F1800 X7.761 Y-4.117 E28.48437
G0 F3600 X7.761 Y-4.683
G1 F1800 X6.482 Y-5.962 E28.57461
G0 F3600 X7.049 Y-5.961
G1 F1800 X7.76 Y-5.25 E28.62478
G1 X7.83 Y-5.18
;MESH:NONMESH
G0 F600 X7.83 Y-5.18 Z0.6
G0 F3600 X0.037 Y-6.369
G0 X-0.004 Y-6.679
;TIME_ELAPSED:22.661875
;LAYER:1
M106 S255 P1
;TYPE:WALL-OUTER
;MESH:UltimakerRobot_support.stl
G1 F1800 X0.515 Y-6.754 E28.65094
G1 X7.089 Y-6.754 E28.97892
G1 X7.476 Y-6.703 E28.99839
G1 X7.825 Y-6.559 E29.01723
G1 X8.127 Y-6.327 E29.03623
G1 X8.359 Y-6.025 E29.05523
G1 X8.503 Y-5.676 E29.07406
G1 X8.554 Y-5.289 E29.09354
G1 X8.554 Y5.289 E29.62128
G1 X8.503 Y5.676 E29.64075
G1 X8.359 Y6.025 E29.65959
G1 X8.127 Y6.327 E29.67859
G1 X7.825 Y6.559 E29.69759
G1 X7.476 Y6.703 E29.71642
G1 X7.089 Y6.754 E29.7359
G1 X0.511 Y6.754 E30.06407
G1 X-0.028 Y6.683 E30.0912
G1 X-.515 Y6.754 E30.11575
G1 X-7.089 Y6.754 E30.44373
G1 X-7.476 Y6.703 E30.4632
G1 X-7.825 Y6.559 E30.48204
G1 X-8.127 Y6.327 E30.50104
G1 X-8.359 Y6.025 E30.52004
G1 X-8.503 Y5.676 E30.53887
G1 X-8.554 Y5.289 E30.55835
G1 X-8.554 Y-5.289 E31.08609
G1 X-8.503 Y-5.676 E31.10556
G1 X-8.359 Y-6.025 E31.1244
G1 X-8.127 Y-6.327 E31.1434
G1 X-7.825 Y-6.559 E31.16239
G1 X-7.476 Y-6.703 E31.18123
G1 X-7.089 Y-6.754 E31.2007
G1 X-.515 Y-6.754 E31.52868
G1 X-0.004 Y-6.679 E31.55445
G0 F5400 X0.194 Y-6.707
G0 X-0.004 Y-6.285
;TYPE:SKIN
G1 F1800 X0.543 Y-6.364 E31.58202
G1 X7.068 Y-6.364 E31.90756
G1 X7.37 Y-6.325 E31.92275
G1 X7.627 Y-6.218 E31.93664
G1 X7.848 Y-6.048 E31.95055
G1 X8.018 Y-5.827 E31.96446
G1 X8.125 Y-5.57 E31.97835
G1 X8.164 Y-5.268 E31.99354
G1 X8.164 Y5.268 E32.51918
G1 X8.125 Y5.57 E32.53437
G1 X8.018 Y5.827 E32.54826
G1 X7.848 Y6.048 E32.56217
G1 X7.627 Y6.218 E32.57608
G1 X7.37 Y6.325 E32.58997
G1 X7.068 Y6.364 E32.60516
G1 X0.532 Y6.364 E32.93125
G1 X-0.03 Y6.289 E32.95953
G1 X-.543 Y6.364 E32.9854
G1 X-7.068 Y6.364 E33.31093
G1 X-7.37 Y6.325 E33.32612
G1 X-7.627 Y6.218 E33.34001
G1 X-7.848 Y6.048 E33.35392
G1 X-8.018 Y5.827 E33.36783
G1 X-8.125 Y5.57 E33.38172
G1 X-8.164 Y5.268 E33.39691
G1 X-8.164 Y-5.268 E33.92256
G1 X-8.125 Y-5.57 E33.93775
G1 X-8.018 Y-5.827 E33.95164
G1 X-7.848 Y-6.048 E33.96555
G1 X-7.627 Y-6.218 E33.97946
G1 X-7.37 Y-6.325 E33.99335
G1 X-7.068 Y-6.364 E34.00854
G1 X-.544 Y-6.364 E34.33402
G1 X-0.004 Y-6.285 E34.36125
G0 F5400 X-7.871 Y-5.704
G1 F1800 X-7.503 Y-6.073 E34.38725
G0 F5400 X-6.827 Y-6.183
G1 F1800 X-7.983 Y-5.027 E34.46881
G0 F5400 X-7.983 Y-4.461
G1 F1800 X-6.261 Y-6.183 E34.59031
G0 F5400 X-5.695 Y-6.183
G1 F1800 X-7.983 Y-3.896 E34.7517
G0 F5400 X-7.983 Y-3.33
G1 F1800 X-5.13 Y-6.183 E34.953
G0 F5400 X-4.564 Y-6.183
G1 F1800 X-7.983 Y-2.764 E35.19423
G0 F5400 X-7.983 Y-2.199
G1 F1800 X-3.998 Y-6.183 E35.47536
G0 F5400 X-3.433 Y-6.183
G1 F1800 X-7.983 Y-1.633 E35.79638
G0 F5400 X-7.983 Y-1.067
G1 F1800 X-2.867 Y-6.183 E36.15734
G0 F5400 X-2.301 Y-6.183
G1 F1800 X-7.983 Y-.502 E36.5582
G0 F5400 X-7.983 Y0.063
G1 F1800 X-1.735 Y-6.183 E36.99896
G0 F5400 X-1.17 Y-6.183
G1 F1800 X-7.983 Y0.629 E37.47962
G0 F5400 X-7.983 Y1.195
G1 F1800 X-.604 Y-6.183 E38.00022
G0 F5400 X-.104 Y-6.117
G1 F1800 X-7.983 Y1.76 E38.55605
G0 F5400 X-7.983 Y2.326
G1 F1800 X0.521 Y-6.177 E39.15602
G0 F5400 X1.092 Y-6.183
G1 F1800 X-7.983 Y2.892 E39.79631
G0 F5400 X-7.983 Y3.457
G1 F1800 X1.658 Y-6.183 E40.4765
G0 F5400 X2.223 Y-6.183
G1 F1800 X-7.983 Y4.023 E41.19659
G0 F5400 X-7.983 Y4.589
G1 F1800 X2.789 Y-6.183 E41.95661
G0 F5400 X3.355 Y-6.183
G1 F1800 X-7.983 Y5.154 E42.75653
G0 F5400 X-7.899 Y5.637
G1 F1800 X3.92 Y-6.183 E43.59046
G0 F5400 X4.486 Y-6.183
G1 F1800 X-7.66 Y5.963 E44.44743
G0 F5400 X-7.286 Y6.154
G1 F1800 X5.052 Y-6.183 E45.3179
G0 F5400 X5.617 Y-6.183
G1 F1800 X-6.749 Y6.183 E46.19039
G0 F5400 X-6.183 Y6.183
G1 F1800 X6.183 Y-6.183 E47.06288
G0 F5400 X6.749 Y-6.183
G1 F1800 X-5.617 Y6.183 E47.93537
G0 F5400 X-5.052 Y6.183
G1 F1800 X7.286 Y-6.154 E48.80585
G0 F5400 X7.66 Y-5.963
G1 F1800 X-4.486 Y6.183 E49.66281
G0 F5400 X-3.92 Y6.183
G1 F1800 X7.899 Y-5.637 E50.49674
G0 F5400 X7.983 Y-5.154
G1 F1800 X-3.355 Y6.183 E51.29666
G0 F5400 X-2.789 Y6.183
G1 F1800 X7.983 Y-4.589 E52.05669
G0 F5400 X7.983 Y-4.023
G1 F1800 X-2.223 Y6.183 E52.77677
G0 F5400 X-1.658 Y6.183
G1 F1800 X7.983 Y-3.457 E53.45696
G0 F5400 X7.983 Y-2.892
G1 F1800 X-1.092 Y6.183 E54.09725
G0 F5400 X-.521 Y6.177
G1 F1800 X7.983 Y-2.326 E54.69722
G0 F5400 X7.983 Y-1.76
G1 F1800 X0.098 Y6.124 E55.25352
G0 F5400 X0.604 Y6.183
G1 F1800 X7.983 Y-1.195 E55.77411
G0 F5400 X7.983 Y-.629
G1 F1800 X1.17 Y6.183 E56.25477
G0 F5400 X1.735 Y6.183
G1 F1800 X7.983 Y-0.063 E56.69553
G0 F5400 X7.983 Y0.502
G1 F1800 X2.301 Y6.183 E57.09639
G0 F5400 X2.867 Y6.183
G1 F1800 X7.983 Y1.067 E57.45735
G0 F5400 X7.983 Y1.633
G1 F1800 X3.433 Y6.183 E57.77838
G0 F5400 X3.998 Y6.183
G1 F1800 X7.983 Y2.199 E58.0595
G0 F5400 X7.983 Y2.764
G1 F1800 X4.564 Y6.183 E58.30073
G0 F5400 X5.13 Y6.183
G1 F1800 X7.983 Y3.33 E58.50203
G0 F5400 X7.983 Y3.896
G1 F1800 X5.695 Y6.183 E58.66342
G0 F5400 X6.261 Y6.183
G1 F1800 X7.983 Y4.461 E58.78492
G0 F5400 X7.983 Y5.027
G1 F1800 X6.827 Y6.183 E58.86648
G0 F5400 X7.503 Y6.073
G1 F1800 X7.871 Y5.704 E58.89248
;MESH:NONMESH
G0 F600 X7.871 Y5.704 Z0.9
G0 F5400 X-6.639 Y-6.639
;TIME_ELAPSED:44.339650
;LAYER:2
;TYPE:FILL
;MESH:UltimakerRobot_support.stl
G1 F2002.1 X6.639 Y6.639 E59.82932
G1 X6.709 Y6.709
G0 F7200 X6.709 Y6.7
G0 X-6.64 Y6.64
G1 F2002.1 X6.64 Y-6.64 E60.76629
G1 X6.71 Y-6.71
G0 F7200 X6.71 Y-6.7
G0 X0.001 Y-6.628
G0 X0.001 Y-6.728
;TYPE:WALL-OUTER
G1 F1001.1 X0.514 Y-6.8 E60.79214
G1 X7.089 Y-6.8 E61.12016
G1 X7.485 Y-6.748 E61.14009
G1 X7.849 Y-6.597 E61.15975
G1 X8.159 Y-6.359 E61.17925
G1 X8.397 Y-6.049 E61.19875
G1 X8.548 Y-5.685 E61.21841
G1 X8.6 Y-5.289 E61.23833
G1 X8.6 Y5.289 E61.76607
G1 X8.548 Y5.685 E61.786
G1 X8.397 Y6.049 E61.80566
G1 X8.159 Y6.359 E61.82516
G1 X7.849 Y6.597 E61.84466
G1 X7.485 Y6.748 E61.86432
G1 X7.089 Y6.8 E61.88424
G1 X0.511 Y6.8 E62.21242
G1 X-0.026 Y6.73 E62.23944
G1 X-.514 Y6.8 E62.26403
G1 X-7.089 Y6.8 E62.59206
G1 X-7.485 Y6.748 E62.61199
G1 X-7.849 Y6.597 E62.63165
G1 X-8.159 Y6.359 E62.65115
G1 X-8.397 Y6.049 E62.67065
G1 X-8.548 Y5.685 E62.69031
G1 X-8.6 Y5.289 E62.71023
G1 X-8.6 Y-5.289 E63.23797
G1 X-8.548 Y-5.685 E63.2579
G1 X-8.397 Y-6.049 E63.27756
G1 X-8.159 Y-6.359 E63.29706
G1 X-7.849 Y-6.597 E63.31655
G1 X-7.485 Y-6.748 E63.33622
G1 X-7.089 Y-6.8 E63.35614
G1 X-.514 Y-6.8 E63.68417
G1 X0.001 Y-6.728 E63.71011
G0 F7200 X0.199 Y-6.755
G0 X0.252 Y-6.359
;MESH:NONMESH
G0 F600 X0.252 Y-6.359 Z1.2
G0 F7200 X-6.639 Y-6.639
;TIME_ELAPSED:49.429413
;LAYER:3
;TYPE:FILL
;MESH:UltimakerRobot_support.stl
G1 F1987.9 X6.639 Y6.639 E64.64695
G1 X6.709 Y6.709
G0 F7200 X6.709 Y6.7
G0 X-6.639 Y6.639
G1 F1987.9 X6.639 Y-6.639 E65.58378
G1 X6.709 Y-6.709
G0 F7200 X6.709 Y-6.7
G0 X-0.073 Y6.644
G0 X-0.072 Y6.743
;TYPE:WALL-OUTER
G1 F993.9 X-.511 Y6.8 E65.60587
G1 X-7.083 Y6.8 E65.93375
G1 X-7.541 Y6.73 E65.95686
G1 X-7.893 Y6.569 E65.97617
G1 X-8.196 Y6.319 E65.99577
G1 X-8.423 Y6 E66.0153
G1 X-8.558 Y5.636 E66.03467
G1 X-8.6 Y5.284 E66.05236
G1 X-8.6 Y-5.283 E66.57955
G1 X-8.53 Y-5.741 E66.60266
G1 X-8.369 Y-6.093 E66.62197
G1 X-8.119 Y-6.396 E66.64157
G1 X-7.8 Y-6.623 E66.66111
G1 X-7.436 Y-6.758 E66.68047
G1 X-7.084 Y-6.8 E66.69816
G1 X-.462 Y-6.799 E67.02853
G1 X0.072 Y-6.743 E67.05532
G1 X0.511 Y-6.8 E67.07741
G1 X7.083 Y-6.8 E67.40528
G1 X7.541 Y-6.73 E67.4284
G1 X7.893 Y-6.569 E67.44771
G1 X8.196 Y-6.319 E67.46731
G1 X8.423 Y-6 E67.48684
G1 X8.558 Y-5.636 E67.50621
G1 X8.6 Y-5.284 E67.5239
G1 X8.6 Y5.283 E68.05109
G1 X8.53 Y5.741 E68.0742
G1 X8.369 Y6.093 E68.09351
G1 X8.119 Y6.396 E68.11311
G1 X7.8 Y6.623 E68.13264
G1 X7.436 Y6.758 E68.15201
G1 X7.084 Y6.8 E68.1697
G1 X0.462 Y6.799 E68.50007
G1 X-0.072 Y6.743 E68.52686
G0 F7200 X-.27 Y6.768
G0 X-.32 Y6.371
;MESH:NONMESH
G0 F600 X-.32 Y6.371 Z1.5
G0 F7200 X-6.636 Y-6.636
;TIME_ELAPSED:54.678785
;LAYER:4
;TYPE:FILL
;MESH:UltimakerRobot_support.stl
G1 F1985.2 X6.636 Y6.636 E69.46327
G1 X6.706 Y6.706
G0 F7200 X6.706 Y6.697
G0 X-6.637 Y6.637
G1 F1985.2 X6.637 Y-6.637 E70.39982
G1 X6.707 Y-6.707
G0 F7200 X6.707 Y-6.697
G0 X0.014 Y-6.626
G0 X0.014 Y-6.726
;TYPE:WALL-OUTER
G1 F992.6 X0.514 Y-6.797 E70.42502
G1 X7.089 Y-6.797 E70.75305
G1 X7.484 Y-6.746 E70.77292
G1 X7.848 Y-6.595 E70.79258
G1 X8.157 Y-6.357 E70.81204
G1 X8.395 Y-6.048 E70.83149
G1 X8.546 Y-5.684 E70.85115
G1 X8.597 Y-5.289 E70.87102
G1 X8.597 Y5.289 E71.39876
G1 X8.546 Y5.684 E71.41863
G1 X8.395 Y6.048 E71.43829
G1 X8.157 Y6.357 E71.45775
G1 X7.848 Y6.595 E71.47721
G1 X7.484 Y6.746 E71.49687
G1 X7.089 Y6.797 E71.51674
G1 X0.494 Y6.797 E71.84577
G1 X-0.016 Y6.727 E71.87145
G1 X-.514 Y6.797 E71.89654
G1 X-7.089 Y6.797 E72.22457
G1 X-7.484 Y6.746 E72.24444
G1 X-7.848 Y6.595 E72.2641
G1 X-8.157 Y6.357 E72.28356
G1 X-8.395 Y6.048 E72.30302
G1 X-8.546 Y5.684 E72.32268
G1 X-8.597 Y5.289 E72.34255
G1 X-8.597 Y-5.289 E72.87029
G1 X-8.546 Y-5.684 E72.89016
G1 X-8.395 Y-6.048 E72.90982
G1 X-8.157 Y-6.357 E72.92928
G1 X-7.848 Y-6.595 E72.94873
G1 X-7.484 Y-6.746 E72.9684
G1 X-7.089 Y-6.797 E72.98827
G1 X-.496 Y-6.797 E73.31719
G1 X0.014 Y-6.726 E73.34288
G0 F7200 X0.212 Y-6.754
G0 X0.266 Y-6.357
;MESH:NONMESH
G0 F600 X0.266 Y-6.357 Z1.8
G0 F7200 X-5.939 Y-5.939
;TIME_ELAPSED:59.801079
;LAYER:5
;TYPE:FILL
;MESH:UltimakerRobot_support.stl
G1 F3600 X5.939 Y5.939 E74.18094
G1 X6.009 Y6.009
G0 F7200 X-5.94 Y5.94
G1 F3600 X5.94 Y-5.94 E75.01914
G1 X6.01 Y-6.01
G0 F7200 X-0.023 Y6.53
G0 X-0.023 Y6.63
;TYPE:WALL-OUTER
G1 F1800 X-.517 Y6.705 E75.04406
G1 X-7.107 Y6.705 E75.37284
G1 X-7.481 Y6.651 E75.39169
G1 X-7.818 Y6.505 E75.41002
G1 X-8.106 Y6.278 E75.42831
G1 X-8.325 Y5.985 E75.44656
G1 X-8.461 Y5.642 E75.46497
G1 X-8.505 Y5.291 E75.48262
G1 X-8.505 Y-5.307 E76.01135
G1 X-8.451 Y-5.681 E76.03021
G1 X-8.305 Y-6.018 E76.04853
G1 X-8.078 Y-6.306 E76.06682
G1 X-7.785 Y-6.525 E76.08507
G1 X-7.442 Y-6.661 E76.10348
G1 X-7.091 Y-6.705 E76.12113
G1 X-.495 Y-6.705 E76.45021
G1 X0.02 Y-6.63 E76.47617
G1 X0.517 Y-6.705 E76.50125
G1 X7.107 Y-6.705 E76.83002
G1 X7.481 Y-6.651 E76.84888
G1 X7.818 Y-6.505 E76.8672
G1 X8.106 Y-6.278 E76.8855
G1 X8.325 Y-5.985 E76.90374
G1 X8.461 Y-5.642 E76.92215
G1 X8.505 Y-5.293 E76.9397
G1 X8.505 Y5.307 E77.46854
G1 X8.451 Y5.681 E77.48739
G1 X8.305 Y6.018 E77.50571
G1 X8.078 Y6.306 E77.52401
G1 X7.785 Y6.525 E77.54226
G1 X7.442 Y6.661 E77.56067
G1 X7.091 Y6.705 E77.57832
G1 X0.495 Y6.705 E77.90739
G1 X-0.023 Y6.63 E77.9335
G0 F7200 X-.22 Y6.66
G0 X-0.025 Y6.236
;TYPE:SKIN
G1 F1800 X-.549 Y6.315 E77.95994
G1 X-7.079 Y6.315 E78.28573
G1 X-7.372 Y6.273 E78.30049
G1 X-7.62 Y6.165 E78.31399
G1 X-7.825 Y6.003 E78.32702
G1 X-7.979 Y5.797 E78.33986
G1 X-8.08 Y5.543 E78.35349
G1 X-8.115 Y5.262 E78.36762
G1 X-8.115 Y-5.28 E78.89356
G1 X-8.073 Y-5.572 E78.90828
G1 X-7.965 Y-5.82 E78.92178
G1 X-7.803 Y-6.025 E78.93481
G1 X-7.597 Y-6.179 E78.94764
G1 X-7.339 Y-6.281 E78.96148
G1 X-7.074 Y-6.315 E78.97481
G1 X-.523 Y-6.315 E79.30164
G1 X0.021 Y-6.236 E79.32907
G1 X0.549 Y-6.315 E79.3557
G1 X7.079 Y-6.315 E79.68149
G1 X7.372 Y-6.273 E79.69625
G1 X7.62 Y-6.165 E79.70975
G1 X7.825 Y-6.003 E79.72278
G1 X7.979 Y-5.797 E79.73562
G1 X8.081 Y-5.539 E79.74946
G1 X8.115 Y-5.276 E79.76269
G1 X8.115 Y5.278 E80.28923
G1 X8.073 Y5.571 E80.304
G1 X7.965 Y5.82 E80.31754
G1 X7.803 Y6.025 E80.33057
G1 X7.597 Y6.179 E80.3434
