;FLAVOR:Marlin
;TIME:2826
;Filament used: 3.05541m
;Layer height: 0.3
;MINX:-29.806
;MINY:-16.167
;MINZ:0.3
;MAXX:29.794
;MAXY:16.165
;MAXZ:48
;Generated with Cura_SteamEngine master
M140 S60
M105
M190 S60
M104 S200
M105
M109 S200
M82 ;absolute extrusion mode
G28 ;Home
G1 Z15.0 F6000 ;Move the platform down 15mm
;Prime the extruder
G92 E0
G1 F200 E3
G92 E0
G92 E0
G92 E0
G1 F1500 E-6.5
;LAYER_COUNT:160
;LAYER:0
M107 P1
G0 F3600 X13.95 Y-.692 Z0.3
;TYPE:SUPPORT
G1 F1500 E0
G1 F1800 X14.321 Y-.533 E0.02014
G1 X15.332 Y-.746 E0.07168
G1 X15.352 Y-.71 E0.07374
G1 X15.88 Y-.536 E0.10147
G1 X16.379 Y-.763 E0.12882
G1 X16.472 Y-.604 E0.13801
G1 X16.947 Y-.382 E0.16417
G1 X17.925 Y-.552 E0.2137
G1 X18.082 Y-.317 E0.2278
G1 X18.541 Y-0.097 E0.25319
G1 X19.052 Y-.142 E0.27878
G1 X19.074 Y0.098 E0.29081
G1 X19.001 Y0.343 E0.30356
G1 X18.085 Y0.287 E0.34935
G1 X17.399 Y0.548 E0.38596
G1 X16.261 Y0.34 E0.44368
G1 X15.783 Y0.553 E0.46979
G1 X15.773 Y0.569 E0.47073
G1 X15.391 Y0.709 E0.49103
G1 X14.465 Y0.358 E0.54043
G1 X13.998 Y0.522 E0.56513
G1 X14.08 Y0.219 E0.58079
G1 X14.037 Y-.471 E0.61528
G1 X13.95 Y-.692 E0.62713
G0 F3600 X14.226 Y0.00
G1 F1800 X18.375 Y0.00 E0.83412
G0 F3600 X18.669 Y0.052
G1 F1800 X18.669 Y0.162 E0.83961
G0 F3600 X16.002 Y0.28
G1 F1800 X16.002 Y-.416 E0.87433
G0 F3600 X23.636 Y6.896
G1 F1800 X23.703 Y6.83 E0.87902
G1 X25.173 Y5.257 E0.98644
G1 X25.386 Y4.953 E1.00496
G1 X25.54 Y4.755 E1.01747
G1 X25.772 Y4.583 E1.03188
G1 X25.802 Y4.544 E1.03433
G1 X26.471 Y4.708 E1.0687
G1 X26.89 Y4.558 E1.0909
G1 X26.753 Y4.725 E1.10168
G1 X26.264 Y5.228 E1.13668
G1 X26.218 Y5.297 E1.14081
G1 X25.742 Y5.834 E1.17661
G1 X25.496 Y6.063 E1.19338
G1 X24.759 Y6.822 E1.24616
G1 X24.254 Y7.267 E1.27974
G1 X24.131 Y7.412 E1.28923
G1 X23.673 Y7.807 E1.3194
G1 X23.546 Y7.911 E1.32759
G1 X23.656 Y7.525 E1.34762
G1 X23.499 Y7.122 E1.3692
G1 X23.636 Y6.896 E1.38238
G0 F3600 X22.189 Y9.039
G1 F1800 X22.148 Y9.081 E1.38531
G1 X20.893 Y10.038 E1.46405
G1 X20.534 Y10.269 E1.48535
G1 X21.599 Y9.486 E1.55129
G1 X22.189 Y9.039 E1.58822
G0 F3600 X18.744 Y11.398
G1 F1800 X18.768 Y11.399 E1.58942
G1 X18.587 Y11.508 E1.59996
G1 X18.415 Y11.594 E1.60956
G1 X18.744 Y11.398 E1.62866
G0 F3600 X18.127 Y11.765
G1 F1800 X18.11 Y11.779 E1.62976
G1 X17.955 Y11.867 E1.63865
G1 X18.127 Y11.765 E1.64863
G0 F3600 X15.86 Y12.932
G1 F1800 X14.744 Y13.427 E1.70954
G1 X14.584 Y13.489 E1.7181
G1 X15.788 Y12.937 E1.78418
G1 X15.86 Y12.932 E1.78778
G0 F3600 X11.564 Y14.524
G1 F1800 X11.601 Y14.543 E1.78986
G1 X11.212 Y14.642 E1.80988
G1 X11.564 Y14.524 E1.8284
G0 F3600 X11.183 Y14.65
G1 F1800 X10.635 Y14.799 E1.85674
G1 X10.064 Y14.939 E1.88607
G1 X9.953 Y14.973 E1.89186
G1 X9.964 Y14.932 E1.89398
G1 X10.048 Y14.907 E1.89835
G1 X11.018 Y14.642 E1.94852
G1 X11.183 Y14.65 E1.95676
G0 F3600 X28.544 Y2.461
G1 F1800 X29.172 Y1.562 E2.01147
G1 X29.22 Y1.488 E2.01587
G1 X29.207 Y1.52 E2.01759
G1 X28.907 Y1.996 E2.04566
G1 X28.544 Y2.461 E2.07509
G0 F3600 X25.97 Y5.334
G1 F1800 X25.314 Y5.334 E2.10782
G0 F3600 X24.003 Y6.743
G1 F1800 X24.003 Y7.312 E2.13621
G0 F3600 X5.409 Y14.837
G1 F1800 X4.966 Y15.265 E2.16694
G1 X3.91 Y15.325 E2.21971
G1 X3.548 Y15.261 E2.23805
G1 X2.062 Y15.173 E2.31232
G1 X0.493 Y14.999 E2.39107
G1 X-.956 Y14.813 E2.46396
G1 X-1.175 Y14.767 E2.47512
G1 X0.89 Y14.791 E2.57815
G1 X1.232 Y14.905 E2.59614
G1 X2.8 Y14.821 E2.67448
G1 X5.088 Y14.754 E2.78868
G1 X5.409 Y14.837 E2.80522
G0 F3600 X-1.543 Y14.7
G1 F1800 X-2.73 Y14.489 E2.86537
G1 X-3.227 Y14.386 E2.89069
G1 X-6.191 Y13.888 E3.04063
G1 X-6.241 Y13.888 E3.04313
G1 X-9.841 Y13.302 E3.2251
G1 X-10.136 Y13.266 E3.23992
G1 X-12.329 Y12.938 E3.35055
G1 X-15.291 Y12.516 E3.49982
G1 X-16.076 Y12.416 E3.5393
G1 X-17.398 Y12.235 E3.60587
G1 X-17.838 Y12.119 E3.62857
G1 X-19.973 Y11.899 E3.73565
G1 X-21.146 Y11.768 E3.79453
G1 X-23.643 Y11.472 E3.91998
G1 X-23.917 Y11.447 E3.93371
G1 X-27.125 Y11.11 E4.09464
G1 X-28.178 Y10.993 E4.1475
G1 X-28.592 Y10.871 E4.16903
G1 X-28.765 Y10.77 E4.17902
G1 X-24.551 Y11.228 E4.3905
G1 X-23.595 Y11.347 E4.43856
G1 X-22.46 Y11.464 E4.49549
G1 X-22.081 Y11.509 E4.51453
G1 X-18.911 Y11.835 E4.67351
G1 X-17.409 Y12.002 E4.74891
G1 X-17.04 Y12.164 E4.76902
G1 X-13.347 Y12.56 E4.95432
G1 X-12.967 Y12.726 E4.975
G1 X-10.707 Y12.975 E5.08844
G1 X-10.337 Y13.133 E5.10851
G1 X-8.56 Y13.328 E5.1977
G1 X-8.195 Y13.483 E5.21748
G1 X-5.751 Y13.746 E5.34012
G1 X-4.593 Y14.025 E5.39954
G1 X-3.409 Y14.194 E5.45921
G1 X-3.005 Y14.348 E5.48078
G1 X-1.944 Y14.457 E5.53399
G1 X-1.837 Y14.571 E5.54179
G1 X-1.543 Y14.7 E5.55781
G0 F3600 X-29.523 Y10.008
G1 F1800 X-29.687 Y9.456 E5.58654
G1 X-29.72 Y9.083 E5.60522
G1 X-29.719 Y-9.22 E6.51836
G1 X-29.637 Y-9.689 E6.54212
G1 X-29.455 Y-10.107 E6.56486
G1 X-29.327 Y-10.271 E6.57524
G1 X-29.616 Y-8.896 E6.64534
G1 X-29.618 Y-.274 E7.07549
G1 X-29.223 Y-0.007 E7.09928
G1 X-29.616 Y0.256 E7.12287
G1 X-29.618 Y8.776 E7.54794
G1 X-29.523 Y10.008 E7.60958
G0 F3600 X-26.796 Y0.66
G1 F1800 X-26.811 Y0.66 E7.61033
G1 X-26.965 Y0.815 E7.62123
G1 X-28.923 Y-0.008 E7.7272
G1 X-26.967 Y-.815 E7.83276
G1 X-26.811 Y-.659 E7.84377
G1 X-26.795 Y-.659 E7.84457
G1 X-26.796 Y0.66 E7.91037
G1 F1500 E1.41037
G0 F3600 X-26.559 Y-4.96
G0 X-26.2 Y-6.222
G0 X-25.252 Y-7.092
G0 X5.35 Y-14.795
G1 F1500 E7.91037
G1 F1800 X4.897 Y-14.746 E7.9331
G1 X4.361 Y-14.782 E7.9599
G1 X3.085 Y-14.811 E8.02358
G1 X1.202 Y-14.896 E8.11762
G1 X0.849 Y-14.787 E8.13605
G1 X-0.085 Y-14.787 E8.18265
G1 X-.582 Y-14.598 E8.20918
G1 X-3.013 Y-14.351 E8.33108
G1 X-3.388 Y-14.216 E8.35097
G1 X-4.622 Y-14.072 E8.41295
G1 X-5.4 Y-13.778 E8.45444
G1 X-8.18 Y-13.478 E8.59394
G1 X-8.538 Y-13.327 E8.61333
G1 X-10.284 Y-13.137 E8.70095
G1 X-10.655 Y-12.979 E8.72107
G1 X-13.007 Y-12.727 E8.83908
G1 X-13.375 Y-12.562 E8.8592
G1 X-16.621 Y-12.212 E9.02208
G1 X-16.988 Y-12.048 E9.04214
G1 X-18.711 Y-11.858 E9.12862
G1 X-19.775 Y-11.766 E9.1819
G1 X-27.221 Y-10.954 E9.55559
G1 X-28.854 Y-10.72 E9.63789
G1 X-28.76 Y-10.79 E9.64374
G1 X-28.358 Y-10.957 E9.66545
G1 X-27.732 Y-11.051 E9.69704
G1 X-26.878 Y-11.147 E9.73991
G1 X-19.624 Y-11.938 E10.10396
G1 X-18.192 Y-12.054 E10.17564
G1 X-17.717 Y-12.127 E10.19961
G1 X-17.348 Y-12.246 E10.21896
G1 X-15.75 Y-12.453 E10.29935
G1 X-14.169 Y-12.644 E10.3788
G1 X-13.701 Y-12.748 E10.40271
G1 X-12.372 Y-12.931 E10.46964
G1 X-12.168 Y-12.947 E10.47985
G1 X-9.772 Y-13.321 E10.60084
G1 X-9.325 Y-13.365 E10.62325
G1 X-6.751 Y-13.801 E10.75349
G1 X-6.283 Y-13.866 E10.77707
G1 X-1.223 Y-14.748 E11.03332
G1 X-.316 Y-14.896 E11.07917
G1 X0.272 Y-14.971 E11.10874
G1 X1.417 Y-15.103 E11.16624
G1 X2.261 Y-15.161 E11.20845
G1 X2.864 Y-15.227 E11.23871
G1 X3.702 Y-15.276 E11.28059
G1 X4.88 Y-15.295 E11.33937
G1 X4.975 Y-15.264 E11.34435
G1 X5.35 Y-14.795 E11.37431
G1 F1500 E4.87431
G0 F3600 X-24.639 Y-7.299
G0 X-25.791 Y-6.72
G0 X-26.467 Y-5.595
G0 X-26.956 Y0.00
G1 F1500 E11.37431
G1 F1800 X-28.443 Y0.00 E11.4485
G1 F1500 E4.9485
G0 F3600 X-26.2 Y-6.222
G0 X-25.252 Y-7.092
G0 X10.015 Y-14.917
G1 F1500 E11.4485
G1 F1800 X10.001 Y-14.965 E11.45099
G1 X10.543 Y-14.836 E11.47879
G1 X10.968 Y-14.731 E11.50063
G1 X11.17 Y-14.656 E11.51138
G1 X11.726 Y-14.503 E11.54015
G1 X11.62 Y-14.492 E11.54547
G1 X11.333 Y-14.574 E11.56036
G1 X10.015 Y-14.917 E11.6283
G0 F3600 X13.535 Y-13.894
G1 F1800 X13.645 Y-13.858 E11.63408
G1 X14.104 Y-13.682 E11.6586
G1 X14.22 Y-13.62 E11.66517
G1 X14.51 Y-13.513 E11.68059
G1 X14.81 Y-13.393 E11.69671
G1 X14.76 Y-13.373 E11.69939
G1 X13.535 Y-13.894 E11.76581
G0 F3600 X17.367 Y-12.184
G1 F1800 X17.805 Y-11.963 E11.79028
G1 X18.067 Y-11.82 E11.80517
G1 X18.278 Y-11.673 E11.818
G1 X18.728 Y-11.434 E11.84343
G1 X18.791 Y-11.395 E11.84712
G1 X18.731 Y-11.395 E11.85012
G1 X17.367 Y-12.184 E11.92873
G0 F3600 X20.645 Y-10.197
G1 F1800 X20.822 Y-10.083 E11.93923
G1 X20.803 Y-10.084 E11.94018
G1 X20.645 Y-10.197 E11.94987
G0 F3600 X22.589 Y-8.734
G1 F1800 X22.687 Y-8.663 E11.95591
G1 X23.06 Y-8.352 E11.98014
G1 X23.152 Y-8.249 E11.98703
G1 X22.589 Y-8.734 E12.0241
G0 F3600 X23.478 Y-7.133
G1 F1800 X23.605 Y-7.463 E12.04174
G1 X23.475 Y-7.971 E12.06791
G1 X23.413 Y-8.024 E12.07198
G1 X23.753 Y-7.756 E12.09357
G1 X24.778 Y-6.777 E12.16429
G1 X25.82 Y-5.754 E12.23714
G1 X26.208 Y-5.308 E12.26663
G1 X26.761 Y-4.71 E12.30727
G1 X26.893 Y-4.551 E12.31758
G1 X26.442 Y-4.702 E12.34131
G1 X25.817 Y-4.543 E12.37348
G1 X25.787 Y-4.582 E12.37594
G1 X25.53 Y-4.772 E12.39188
G1 X24.733 Y-5.719 E12.45363
G1 X23.478 Y-7.133 E12.54796
G0 F3600 X27.591 Y-3.702
G1 F1800 X27.724 Y-3.545 E12.55822
G1 X27.703 Y-3.56 E12.55951
G1 X27.591 Y-3.702 E12.56853
G0 F3600 X28.561 Y-2.442
G1 F1800 X28.802 Y-2.132 E12.58812
G1 X28.742 Y-2.186 E12.59215
G1 X28.561 Y-2.442 E12.60779
G0 F3600 X25.973 Y-5.333
G1 F1800 X25.265 Y-5.333 E12.64311
G0 F3600 X24.003 Y-6.784
G1 F1800 X24.003 Y-7.294 E12.66856
G1 F1500 E6.16856
;MESH:3DBenchy.stl
G0 F3600 X12.978 Y-1.947
G0 X12.24 Y-1.463
G0 X10.436 Y-1.704
G0 X10.382 Y-1.621
;TYPE:WALL-OUTER
G1 F1500 E12.66856
G1 F1800 X10.012 Y-1.716 E12.68762
G1 X9.476 Y-1.714 E12.71436
G1 X8.413 Y-1.717 E12.76739
G1 X7.835 Y-1.716 E12.79623
G1 X7.394 Y-1.634 E12.81861
G1 X7.139 Y-1.426 E12.83502
G1 X7.03 Y-1.063 E12.85393
G1 X7.11 Y-.675 E12.8737
G1 X7.362 Y-.435 E12.89106
G1 X7.871 Y-.332 E12.91697
G1 X8.321 Y-.33 E12.93942
G1 X8.439 Y-.33 E12.9453
G1 X8.805 Y-.363 E12.96364
G1 X8.666 Y-.169 E12.96652
G1 X8.598 Y-0.073 E12.97159
G1 X7.625 Y1.288 E13.05506
G1 X7.305 Y1.723 E13.082
G1 X7.049 Y2.198 E13.10892
G1 X6.994 Y2.599 E13.12911
G1 X7.116 Y3.007 E13.15036
G1 X7.373 Y3.249 E13.16797
G1 X7.76 Y3.303 E13.18746
G1 X8.298 Y3.274 E13.21434
G1 X8.904 Y3.283 E13.24458
G1 X9.576 Y3.283 E13.27811
G1 X10.117 Y3.269 E13.30511
G1 X10.359 Y3.193 E13.31776
G1 X10.484 Y3.154 E13.32429
G1 X10.689 Y2.894 E13.34081
G1 X10.694 Y2.853 E13.34287
G1 X10.742 Y2.511 E13.3601
G1 X10.616 Y2.167 E13.37838
G1 X10.333 Y1.974 E13.39547
G1 X9.807 Y1.887 E13.42207
G1 X9.354 Y1.903 E13.44468
G1 X9.255 Y1.906 E13.44963
G1 X8.9 Y1.913 E13.46734
G1 X9.005 Y1.748 E13.46934
G1 X9.058 Y1.665 E13.47368
G1 X9.163 Y1.499 E13.48348
G1 X9.526 Y0.998 E13.51435
G1 X9.919 Y0.437 E13.54852
G1 X10.266 Y-0.05 E13.57836
G1 X10.561 Y-.531 E13.60651
G1 X10.661 Y-.921 E13.62659
G1 X10.597 Y-1.345 E13.64799
G1 X10.382 Y-1.621 E13.66544
G0 F3600 X10.189 Y-1.67
G0 X10.214 Y-1.766
G0 X10.872 Y3.062
G0 X10.944 Y3.13
G1 F1800 X10.72 Y3.372 E13.67917
G1 X10.653 Y3.444 E13.68363
G1 X10.561 Y3.536 E13.68961
G1 X10.299 Y3.799 E13.70813
G1 X9.936 Y4.138 E13.73291
G1 X9.546 Y4.475 E13.75863
G1 X9.092 Y4.844 E13.78782
G1 X8.674 Y5.153 E13.81375
G1 X8.252 Y5.448 E13.83944
G1 X7.765 Y5.76 E13.86829
G1 X7.342 Y6.008 E13.89276
G1 X6.895 Y6.252 E13.91816
G1 X6.448 Y6.477 E13.94313
G1 X5.98 Y6.693 E13.96884
G1 X5.502 Y6.892 E13.99468
G1 X5.021 Y7.074 E14.02033
G1 X4.514 Y7.245 E14.04703
G1 X4.007 Y7.394 E14.07339
G1 X3.521 Y7.522 E14.09847
G1 X3.037 Y7.629 E14.1232
G1 X2.533 Y7.724 E14.14878
G1 X2.044 Y7.799 E14.17346
G1 X1.539 Y7.861 E14.19885
G1 X0.966 Y7.907 E14.22753
G1 X0.458 Y7.93 E14.2529
G1 X-0.046 Y7.935 E14.27804
G1 X-.566 Y7.921 E14.304
G1 X-1.257 Y7.883 E14.33852
G1 X-2.885 Y7.781 E14.4199
G1 X-4.209 Y7.702 E14.48607
G1 X-4.948 Y7.655 E14.52302
G1 X-21.53 Y6.644 E15.35183
G1 X-24.229 Y6.477 E15.48674
G1 X-24.673 Y6.392 E15.5093
G1 X-25.066 Y6.191 E15.53132
G1 X-25.362 Y5.907 E15.55179
G1 X-25.57 Y5.546 E15.57257
G1 X-25.682 Y5.107 E15.59518
G1 X-25.696 Y4.634 E15.61878
G1 X-25.696 Y-4.891 E16.09399
G1 X-25.626 Y-5.374 E16.11834
G1 X-25.462 Y-5.76 E16.13926
G1 X-25.211 Y-6.071 E16.1592
G1 X-24.874 Y-6.308 E16.17975
G1 X-24.458 Y-6.45 E16.20168
G1 X-24.229 Y-6.478 E16.21319
G1 X-.703 Y-7.916 E17.3891
G1 X-0.091 Y-7.935 E17.41965
G1 X0.503 Y-7.929 E17.44928
G1 X1.1 Y-7.899 E17.47911
G1 X1.658 Y-7.848 E17.50706
G1 X2.204 Y-7.778 E17.53452
G1 X2.755 Y-7.686 E17.56239
G1 X3.308 Y-7.571 E17.59057
G1 X3.85 Y-7.438 E17.61842
G1 X4.374 Y-7.288 E17.64561
G1 X4.877 Y-7.124 E17.672
G1 X5.376 Y-6.942 E17.6985
G1 X5.847 Y-6.749 E17.7239
G1 X6.321 Y-6.537 E17.7498
G1 X6.777 Y-6.315 E17.77511
G1 X7.647 Y-5.831 E17.82478
G1 X8.076 Y-5.564 E17.84998
G1 X8.503 Y-5.275 E17.87571
G1 X8.976 Y-4.933 E17.90483
G1 X9.379 Y-4.613 E17.9305
G1 X9.781 Y-4.274 E17.95674
G1 X10.164 Y-3.928 E17.98249
G1 X10.524 Y-3.575 E18.00764
G1 X10.876 Y-3.207 E18.03305
G1 X11.324 Y-2.702 E18.06673
G1 X11.667 Y-2.282 E18.09378
G1 X11.962 Y-1.891 E18.11822
G1 X12.256 Y-1.474 E18.14367
G1 X12.528 Y-1.058 E18.16847
G1 X12.801 Y-.605 E18.19486
G1 X12.949 Y-.242 E18.21441
G1 X12.974 Y0.091 E18.23107
G1 X12.875 Y0.467 E18.25047
G1 X12.37 Y1.303 E18.2992
G1 X12.018 Y1.815 E18.3302
G1 X11.69 Y2.254 E18.35754
G1 X11.382 Y2.634 E18.38194
G1 X11.068 Y2.995 E18.40581
G1 X11.041 Y3.026 E18.40786
G1 X10.944 Y3.13 E18.41496
G0 F3600 X10.808 Y3.277
G0 X10.736 Y3.209
G0 X3.159 Y5.826
G0 X2.341 Y5.704
G0 X2.128 Y4.6
G0 X2.202 Y4.666
G1 F1800 X2.082 Y4.962 E18.43089
G1 X2.139 Y5.336 E18.44977
G1 X2.366 Y5.674 E18.47008
G1 X2.695 Y5.817 E18.48798
G1 X3.151 Y5.787 E18.51078
G1 X3.708 Y5.585 E18.54034
G1 X4.075 Y5.31 E18.56322
G1 X4.387 Y4.844 E18.59119
G1 X4.631 Y4.297 E18.62108
G1 X4.874 Y3.68 E18.65416
G1 X5.107 Y3.059 E18.68725
G1 X5.91 Y0.805 E18.80663
G1 X6.08 Y0.304 E18.83302
G1 X6.264 Y-.214 E18.86045
G1 X6.494 Y-.722 E18.88827
G1 X6.527 Y-1.095 E18.90695
G1 X6.37 Y-1.44 E18.92586
G1 X6.07 Y-1.686 E18.94521
G1 X5.755 Y-1.714 E18.96099
G1 X5.45 Y-1.504 E18.97947
G1 X5.182 Y-1.067 E19.00504
G1 X4.994 Y-.527 E19.03357
G1 X4.795 Y0.029 E19.06303
G1 X4.724 Y0.259 E19.07504
G1 X4.683 Y0.394 E19.08208
G1 X4.64 Y0.532 E19.08929
G1 X4.569 Y0.724 E19.0995
G1 X4.512 Y0.586 E19.10013
G1 X4.394 Y0.306 E19.11051
G1 X4.344 Y0.175 E19.11669
G1 X4.187 Y-.229 E19.13832
G1 X4.012 Y-.698 E19.16329
G1 X3.866 Y-1.218 E19.19024
G1 X3.671 Y-1.513 E19.20788
G1 X3.326 Y-1.691 E19.22725
G1 X2.946 Y-1.71 E19.24623
G1 X2.659 Y-1.555 E19.2625
G1 X2.524 Y-1.245 E19.27937
G1 X2.545 Y-.773 E19.30294
G1 X2.734 Y-.217 E19.33224
G1 X2.935 Y0.269 E19.35848
G1 X3.14 Y0.822 E19.3879
G1 X3.363 Y1.41 E19.41928
G1 X3.556 Y1.94 E19.44742
G1 X3.773 Y2.42 E19.4737
G1 X3.843 Y2.705 E19.48834
G1 X3.768 Y3.001 E19.50358
G1 X3.384 Y3.917 E19.55313
G1 X3.206 Y4.192 E19.56947
G1 X2.977 Y4.36 E19.58364
G1 X2.509 Y4.501 E19.60803
G1 X2.202 Y4.666 E19.62541
G0 F3600 X2.127 Y4.851
G0 X2.035 Y4.814
G0 X-.898 Y3.391
G0 X-.907 Y3.292
G1 F1800 X-.601 Y3.152 E19.6422
G1 X-.227 Y2.665 E19.67284
G1 X-0.023 Y2.269 E19.69506
G1 X-0.008 Y2.239 E19.69673
G1 X0.031 Y2.163 E19.701
G1 X0.108 Y2.024 E19.70892
G1 X0.148 Y2.098
G1 X0.315 Y2.404 E19.72249
G1 X0.332 Y2.433 E19.72409
G1 X0.602 Y2.902 E19.75109
G1 X0.864 Y3.205 E19.77108
G1 X1.186 Y3.306 E19.78791
G1 X1.563 Y3.228 E19.80712
G1 X1.816 Y2.998 E19.82418
G1 X1.899 Y2.632 E19.8429
G1 X1.807 Y2.236 E19.86318
G1 X1.512 Y1.749 E19.89159
G1 X1.007 Y0.857 E19.94273
G1 X0.99 Y0.661 E19.95254
G1 X1.084 Y0.387 E19.967
G1 X1.365 Y-0.068 E19.99368
G1 X1.709 Y-.659 E20.02779
G1 X1.844 Y-1.039 E20.04791
G1 X1.764 Y-1.375 E20.06514
G1 X1.492 Y-1.654 E20.08458
G1 X1.17 Y-1.727 E20.10105
G1 X0.826 Y-1.568 E20.11996
G1 X0.501 Y-1.202 E20.14438
G1 X0.378 Y-.943 E20.15869
G1 X0.259 Y-.693 E20.1725
G1 X0.205 Y-.598 E20.17795
G1 X0.19 Y-.571 E20.17949
G1 X0.156 Y-.619 E20.17949
G1 X0.149 Y-.629
G1 X0.024 Y-.876 E20.18906
G1 X-0.091 Y-1.1 E20.20162
G1 X-.425 Y-1.542 E20.22926
G1 X-.753 Y-1.717 E20.24781
G1 X-1.11 Y-1.682 E20.26571
G1 X-1.409 Y-1.481 E20.28368
G1 X-1.536 Y-1.184 E20.2998
G1 X-1.469 Y-.784 E20.32003
G1 X-1.218 Y-.298 E20.34732
G1 X-.968 Y0.147 E20.37279
G1 X-.615 Y0.758 E20.40799
G1 X-.636 Y0.856 E20.41299
G1 X-.916 Y1.248 E20.43702
G1 X-1.48 Y2.223 E20.49322
G1 X-1.607 Y2.632 E20.51458
G1 X-1.54 Y2.954 E20.53099
G1 X-1.271 Y3.206 E20.54938
G1 X-.907 Y3.292 E20.56804
G0 F3600 X-.725 Y3.209
G0 X-.685 Y3.3
G0 X-1.94 Y2.54
G0 X-2.038 Y2.526
G1 F1800 X-2.059 Y2.101 E20.58927
G1 X-2.221 Y1.71 E20.61039
G1 X-2.513 Y1.4 E20.63163
G1 X-2.892 Y1.211 E20.65276
G1 X-3.312 Y1.164 E20.67385
G1 X-3.724 Y1.265 E20.69501
G1 X-4.033 Y1.477 E20.71371
G1 X-4.074 Y1.505 E20.71618
